%
(01)
(T9  D=6.35 CR=3.175 - ZMIN=0.5 - ball end mill)
(T10  D=3.175 CR=1.587 - ZMIN=0 - ball end mill)
G90 G0 X0 Y0 Z0 // coordinate home
G90 G94
G17
G21
G28 G91 Z0
G90

(2D Adaptive4)
M9
T9 M6
S8000 M3
G54
M8
G0 X-5.67 Y54.709
Z28.7
Z18.7
Z14.47
G1 Z13.835 F1219.2
X-5.664 Y54.714 Z13.736
X-5.646 Y54.729 Z13.639
X-5.617 Y54.754 Z13.547
X-5.577 Y54.787 Z13.462
X-5.527 Y54.829 Z13.386
X-5.469 Y54.877 Z13.321
X-5.404 Y54.931 Z13.269
X-5.333 Y54.99 Z13.231
X-5.259 Y55.052 Z13.208
X-5.183 Y55.116 Z13.2
G3 X-2.756 Y57.628 I-10.38 J12.452
G1 X-2.694 Y57.714
X-2.622 Y57.814
X-2.567 Y57.953
X-2.522 Y58.096
X-2.484 Y58.242
X-2.446 Y58.421
X-2.406 Y58.655
X-2.363 Y58.977
X-2.319 Y59.459
X-2.272 Y60.337
X-2.258 Y61.318
X-2.255 Y62.3
X-2.254 Y69.17
Y101.56
X-2.173 Y102.044
X-1.951 Y102.482
X-1.628 Y102.851
X-1.235 Y103.146
X-0.362 Y103.595
X0.601 Y103.782
X1.581 Y103.838
X2.563 Y103.851
X3.544 Y103.854
X9.433
X53.602
X101.696
X102.17 Y103.73
X102.591 Y103.476
X102.94 Y103.131
X103.489 Y102.318
X103.744 Y101.37
X103.828 Y100.392
X103.848 Y99.411
X103.853 Y98.429
X103.854 Y96.466
Y58.817
X103.878 Y58.542
X103.949 Y58.276
X104.066 Y58.026
X104.223 Y57.799
G3 X104.421 Y57.651 I0.473 J0.424
G1 X104.511 Y57.608 Z13.208
X104.598 Y57.566 Z13.231
X104.681 Y57.526 Z13.269
X104.758 Y57.489 Z13.321
X104.826 Y57.456 Z13.386
X104.885 Y57.428 Z13.462
X104.932 Y57.406 Z13.547
X104.966 Y57.389 Z13.639
X104.987 Y57.379 Z13.736
X104.994 Y57.376 Z13.835
G0 Z18.7
X107.27 Y46.89
Z14.47
G1 Z13.835 F1219.2
X107.264 Y46.885 Z13.736
X107.247 Y46.871 Z13.639
X107.217 Y46.846 Z13.547
X107.177 Y46.813 Z13.462
X107.128 Y46.771 Z13.386
X107.069 Y46.723 Z13.321
X107.004 Y46.668 Z13.269
X106.933 Y46.609 Z13.231
X106.859 Y46.547 Z13.208
X106.783 Y46.484 Z13.2
G3 X104.356 Y43.972 I10.38 J-12.453
G1 X104.294 Y43.886
X104.222 Y43.786
X104.167 Y43.647
X104.122 Y43.504
X104.085 Y43.358
X104.046 Y43.18
X104.006 Y42.945
X103.963 Y42.624
X103.919 Y42.142
X103.872 Y41.265
X103.858 Y40.283
X103.855 Y39.302
X103.854 Y32.431
Y0.041
X103.773 Y-0.443
X103.552 Y-0.881
X103.229 Y-1.25
X102.837 Y-1.545
X101.964 Y-1.994
X101 Y-2.181
X100.02 Y-2.237
X99.039 Y-2.251
X98.057 Y-2.254
X92.168
X48
X-0.094
X-0.569 Y-2.13
X-0.99 Y-1.877
X-1.339 Y-1.533
X-1.889 Y-0.72
X-2.143 Y0.228
X-2.227 Y1.206
X-2.248 Y2.187
X-2.253 Y3.169
X-2.254 Y5.132
Y42.783
X-2.278 Y43.058
X-2.349 Y43.324
X-2.466 Y43.574
X-2.623 Y43.801
G3 X-2.821 Y43.949 I-0.473 J-0.424
G1 X-2.911 Y43.992 Z13.208
X-2.998 Y44.034 Z13.231
X-3.081 Y44.074 Z13.269
X-3.158 Y44.111 Z13.321
X-3.226 Y44.144 Z13.386
X-3.285 Y44.172 Z13.462
X-3.332 Y44.194 Z13.547
X-3.366 Y44.211 Z13.639
X-3.387 Y44.221 Z13.736
X-3.394 Y44.224 Z13.835
G0 Z18.7
X-3.492 Y57.989
Z14.47
G1 Z13.835 F1219.2
X-3.485 Y57.985 Z13.736
X-3.465 Y57.974 Z13.639
X-3.432 Y57.955 Z13.547
X-3.387 Y57.929 Z13.462
X-3.33 Y57.897 Z13.386
X-3.264 Y57.859 Z13.321
X-3.191 Y57.817 Z13.269
X-3.111 Y57.772 Z13.231
X-3.027 Y57.724 Z13.208
X-2.94 Y57.675 Z13.2
G3 X-2.694 Y57.714 I0.098 J0.172
G1 X-2.508 Y57.938
X-2.472 Y57.975
X-2.392 Y58.067
X-2.31 Y58.193
X-2.241 Y58.326
X-2.182 Y58.464
X-2.131 Y58.605
X-2.086 Y58.748
X-2.038 Y58.925
X-1.985 Y59.158
X-1.936 Y59.423
X-1.888 Y59.746
X-1.838 Y60.222
X-1.789 Y60.942
X-1.762 Y61.923
X-1.756 Y62.904
X-1.755 Y63.886
X-1.754 Y100.202
X-1.753 Y100.693
X-1.654 Y101.173
X-1.256 Y102.071
X-1.147 Y102.291
X-1.006 Y102.491
X-0.835 Y102.667
X-0.639 Y102.815
X-0.207 Y103.047
X0.755 Y103.24
X1.734 Y103.319
X2.715 Y103.345
X3.697 Y103.352
X4.678 Y103.354
X27.253
X54.735
X100.867
X101.338 Y103.218
X102.212 Y102.772
X102.563 Y102.428
X103.022 Y101.561
X103.243 Y100.605
X103.324 Y99.626
X103.347 Y98.645
X103.352 Y97.664
X103.354 Y96.682
Y59.53
X103.362 Y59.326
X103.379 Y59.118
X103.382 Y59.091
X103.44 Y58.825
X103.547 Y58.576
X103.7 Y58.351
X103.894 Y58.161
G3 X104.106 Y58.032 I0.43 J0.468
G1 X104.199 Y57.998 Z13.208
X104.29 Y57.964 Z13.231
X104.376 Y57.933 Z13.269
X104.456 Y57.904 Z13.321
X104.527 Y57.878 Z13.386
X104.588 Y57.855 Z13.462
X104.637 Y57.838 Z13.547
X104.673 Y57.824 Z13.639
X104.695 Y57.816 Z13.736
X104.702 Y57.814 Z13.835
G0 Z18.7
X105.092 Y43.611
Z14.47
G1 Z13.835 F1219.2
X105.085 Y43.615 Z13.736
X105.065 Y43.626 Z13.639
X105.032 Y43.645 Z13.547
X104.987 Y43.671 Z13.462
X104.93 Y43.703 Z13.386
X104.865 Y43.741 Z13.321
X104.791 Y43.783 Z13.269
X104.711 Y43.828 Z13.231
X104.627 Y43.876 Z13.208
X104.54 Y43.925 Z13.2
G3 X104.294 Y43.886 I-0.098 J-0.172
G1 X104.108 Y43.662
X104.072 Y43.625
X103.992 Y43.533
X103.91 Y43.407
X103.841 Y43.274
X103.782 Y43.136
X103.731 Y42.995
X103.686 Y42.852
X103.638 Y42.675
X103.585 Y42.442
X103.536 Y42.177
X103.489 Y41.855
X103.438 Y41.379
X103.389 Y40.659
X103.362 Y39.678
X103.356 Y38.696
X103.355 Y37.715
X103.354 Y1.399
X103.353 Y0.908
X103.254 Y0.427
X102.856 Y-0.47
X102.747 Y-0.69
X102.606 Y-0.89
X102.435 Y-1.067
X102.239 Y-1.214
X101.806 Y-1.446
X100.844 Y-1.64
X99.866 Y-1.719
X98.885 Y-1.745
X97.903 Y-1.752
X96.922 Y-1.754
X74.347
X46.864
X0.733
X0.262 Y-1.618
X-0.612 Y-1.172
X-0.963 Y-0.828
X-1.422 Y0.039
X-1.643 Y0.996
X-1.724 Y1.974
X-1.747 Y2.955
X-1.752 Y3.937
X-1.754 Y4.918
Y42.07
X-1.762 Y42.274
X-1.779 Y42.482
X-1.782 Y42.51
X-1.84 Y42.775
X-1.947 Y43.025
X-2.1 Y43.249
X-2.294 Y43.439
G3 X-2.506 Y43.568 I-0.43 J-0.468
G1 X-2.599 Y43.602 Z13.208
X-2.69 Y43.636 Z13.231
X-2.776 Y43.667 Z13.269
X-2.856 Y43.696 Z13.321
X-2.927 Y43.722 Z13.386
X-2.988 Y43.745 Z13.462
X-3.037 Y43.763 Z13.547
X-3.073 Y43.776 Z13.639
X-3.095 Y43.784 Z13.736
X-3.102 Y43.786 Z13.835
G0 Z18.7
X-3.249 Y58.304
Z14.47
G1 Z13.835 F1219.2
X-3.243 Y58.299 Z13.736
X-3.223 Y58.286 Z13.639
X-3.192 Y58.265 Z13.547
X-3.148 Y58.236 Z13.462
X-3.094 Y58.2 Z13.386
X-3.031 Y58.158 Z13.321
X-2.961 Y58.111 Z13.269
X-2.884 Y58.06 Z13.231
X-2.803 Y58.007 Z13.208
X-2.721 Y57.952 Z13.2
G3 X-2.472 Y57.975 I0.11 J0.165
G1 X-2.294 Y58.161
X-2.218 Y58.222
X-2.126 Y58.304
X-2.026 Y58.415
X-1.939 Y58.538
X-1.864 Y58.668
X-1.797 Y58.802
X-1.739 Y58.94
X-1.686 Y59.081
X-1.631 Y59.252
X-1.581 Y59.429
X-1.524 Y59.663
X-1.467 Y59.952
X-1.415 Y60.277
X-1.357 Y60.765
X-1.307 Y61.389
X-1.267 Y62.369
X-1.258 Y63.351
X-1.255 Y64.332
X-1.254 Y69.24
Y99.667
X-1.172 Y100.645
X-1.125 Y100.803
X-1.028 Y101.284
X-0.852 Y101.742
X-0.728 Y101.954
X-0.573 Y102.145
X-0.392 Y102.31
X-0.187 Y102.445
X0.26 Y102.648
X1.234 Y102.766
X2.214 Y102.823
X3.196 Y102.844
X4.177 Y102.851
X5.159 Y102.853
X11.048 Y102.854
X55.216
X99.384
X100.366 Y102.853
X101.302 Y102.559
X101.538 Y102.49
X101.76 Y102.386
X101.963 Y102.249
X102.143 Y102.082
X102.295 Y101.89
X102.416 Y101.676
X102.761 Y100.757
X102.812 Y99.777
X102.84 Y98.796
X102.85 Y97.815
X102.853 Y96.833
X102.854 Y93.888
Y60.517
X102.858 Y60.038
X102.869 Y59.794
X102.886 Y59.596
X102.894 Y59.532
X102.966 Y59.218
X103.1 Y58.926
X103.289 Y58.667
X103.527 Y58.451
X103.619 Y58.384
X103.894 Y58.161
G3 X104.117 Y58.053 I0.383 J0.507
G1 X104.213 Y58.028 Z13.208
X104.307 Y58.003 Z13.231
X104.396 Y57.98 Z13.269
X104.478 Y57.959 Z13.321
X104.552 Y57.94 Z13.386
X104.614 Y57.924 Z13.462
X104.665 Y57.911 Z13.547
X104.702 Y57.901 Z13.639
X104.724 Y57.895 Z13.736
X104.732 Y57.893 Z13.835
G0 Z18.7
X104.849 Y43.297
Z14.47
G1 Z13.835 F1219.2
X104.843 Y43.301 Z13.736
X104.823 Y43.314 Z13.639
X104.792 Y43.335 Z13.547
X104.748 Y43.364 Z13.462
X104.694 Y43.4 Z13.386
X104.631 Y43.442 Z13.321
X104.561 Y43.489 Z13.269
X104.484 Y43.54 Z13.231
X104.403 Y43.593 Z13.208
X104.321 Y43.648 Z13.2
G3 X104.072 Y43.625 I-0.11 J-0.165
G1 X103.894 Y43.439
X103.818 Y43.378
X103.726 Y43.296
X103.626 Y43.185
X103.539 Y43.062
X103.464 Y42.932
X103.397 Y42.798
X103.339 Y42.66
X103.286 Y42.519
X103.231 Y42.348
X103.181 Y42.171
X103.124 Y41.937
X103.067 Y41.648
X103.015 Y41.323
X102.957 Y40.834
X102.907 Y40.211
X102.867 Y39.23
X102.858 Y38.249
X102.855 Y37.267
X102.854 Y32.36
Y1.933
X102.772 Y0.955
X102.725 Y0.796
X102.628 Y0.315
X102.452 Y-0.143
X102.327 Y-0.354
X102.173 Y-0.545
X101.991 Y-0.709
X101.786 Y-0.844
X101.339 Y-1.046
X100.364 Y-1.166
X99.385 Y-1.223
X98.403 Y-1.244
X97.422 Y-1.251
X96.44 Y-1.253
X90.551 Y-1.254
X46.383
X2.215
X1.233 Y-1.252
X0.297 Y-0.958
X0.061 Y-0.89
X-0.161 Y-0.786
X-0.364 Y-0.649
X-0.545 Y-0.482
X-0.697 Y-0.289
X-0.817 Y-0.076
X-1.163 Y0.843
X-1.212 Y1.823
X-1.24 Y2.804
X-1.25 Y3.786
X-1.253 Y4.767
X-1.254 Y7.712
Y41.083
X-1.258 Y41.562
X-1.269 Y41.807
X-1.286 Y42.004
X-1.294 Y42.068
X-1.366 Y42.382
X-1.5 Y42.674
X-1.689 Y42.933
X-1.927 Y43.149
X-2.019 Y43.216
X-2.294 Y43.439
G3 X-2.517 Y43.547 I-0.383 J-0.507
G1 X-2.613 Y43.572 Z13.208
X-2.707 Y43.597 Z13.231
X-2.796 Y43.62 Z13.269
X-2.878 Y43.641 Z13.321
X-2.952 Y43.66 Z13.386
X-3.014 Y43.676 Z13.462
X-3.065 Y43.689 Z13.547
X-3.101 Y43.699 Z13.639
X-3.124 Y43.705 Z13.736
X-3.132 Y43.707 Z13.835
G0 Z18.7
X-2.948 Y58.645
Z14.47
G1 Z13.835 F1219.2
X-2.942 Y58.64 Z13.736
X-2.924 Y58.625 Z13.639
X-2.895 Y58.6 Z13.547
X-2.856 Y58.566 Z13.462
X-2.807 Y58.524 Z13.386
X-2.75 Y58.474 Z13.321
X-2.685 Y58.419 Z13.269
X-2.616 Y58.359 Z13.231
X-2.542 Y58.295 Z13.208
X-2.467 Y58.23 Z13.2
G3 X-2.218 Y58.222 I0.13 J0.15
G1 X-2.019 Y58.384
X-1.876 Y58.489
X-1.815 Y58.538
X-1.703 Y58.638
X-1.605 Y58.752
X-1.519 Y58.874
X-1.442 Y59.003
X-1.374 Y59.137
X-1.312 Y59.273
X-1.257 Y59.413
X-1.2 Y59.574
X-1.138 Y59.774
X-1.081 Y59.986
X-1.016 Y60.274
X-0.961 Y60.572
X-0.899 Y60.995
X-0.842 Y61.539
X-0.789 Y62.352
X-0.763 Y63.333
X-0.757 Y64.315
X-0.755 Y65.296
X-0.754 Y78.056
Y99.649
X-0.671 Y100.627
X-0.554 Y101.104
X-0.462 Y101.331
X-0.342 Y101.546
X-0.191 Y101.739
X-0.012 Y101.907
X0.191 Y102.045
X0.412 Y102.15
X0.883 Y102.289
X1.864 Y102.31
X2.845 Y102.34
X3.827 Y102.35
X4.808 Y102.353
X6.771 Y102.354
X56.829
X99.034
X100.015
X100.985 Y102.2
X101.428 Y101.99
X101.618 Y101.834
X101.782 Y101.652
X102.049 Y101.24
X102.219 Y100.78
X102.342 Y99.806
Y98.824
X102.349 Y97.843
X102.354 Y96.861
Y61.527
X102.355 Y60.61
X102.366 Y60.34
X102.387 Y60.083
X102.406 Y59.927
X102.429 Y59.779
X102.441 Y59.723
X102.544 Y59.4
X102.713 Y59.105
X102.941 Y58.853
X103.216 Y58.654
X103.299 Y58.607
X103.439 Y58.516
X103.527 Y58.451
G3 X103.755 Y58.354 I0.359 J0.524
G1 X103.853 Y58.333 Z13.208
X103.947 Y58.313 Z13.231
X104.037 Y58.294 Z13.269
X104.121 Y58.277 Z13.321
X104.195 Y58.261 Z13.386
X104.258 Y58.248 Z13.462
X104.309 Y58.237 Z13.547
X104.346 Y58.229 Z13.639
X104.369 Y58.225 Z13.736
X104.377 Y58.223 Z13.835
G0 Z18.7
X104.548 Y42.955
Z14.47
G1 Z13.835 F1219.2
X104.542 Y42.96 Z13.736
X104.524 Y42.975 Z13.639
X104.495 Y43 Z13.547
X104.456 Y43.034 Z13.462
X104.407 Y43.076 Z13.386
X104.35 Y43.126 Z13.321
X104.285 Y43.181 Z13.269
X104.216 Y43.241 Z13.231
X104.142 Y43.305 Z13.208
X104.067 Y43.369 Z13.2
G3 X103.818 Y43.378 I-0.13 J-0.15
G1 X103.619 Y43.216
X103.476 Y43.111
X103.415 Y43.062
X103.303 Y42.962
X103.205 Y42.848
X103.119 Y42.726
X103.042 Y42.597
X102.974 Y42.463
X102.912 Y42.327
X102.857 Y42.187
X102.8 Y42.026
X102.738 Y41.826
X102.681 Y41.614
X102.616 Y41.325
X102.561 Y41.028
X102.499 Y40.605
X102.442 Y40.061
X102.389 Y39.248
X102.363 Y38.267
X102.357 Y37.285
X102.355 Y36.304
X102.354 Y23.544
Y1.951
X102.271 Y0.973
X102.154 Y0.496
X102.062 Y0.269
X101.942 Y0.055
X101.791 Y-0.139
X101.611 Y-0.306
X101.408 Y-0.444
X101.187 Y-0.549
X100.716 Y-0.688
X99.735 Y-0.71
X98.754 Y-0.74
X97.772 Y-0.75
X96.791 Y-0.753
X94.828 Y-0.754
X44.77
X2.565
X1.584
X0.614 Y-0.6
X0.171 Y-0.389
X-0.019 Y-0.234
X-0.183 Y-0.051
X-0.45 Y0.36
X-0.62 Y0.821
X-0.742 Y1.795
Y2.776
X-0.749 Y3.758
X-0.754 Y4.739
Y40.074
X-0.755 Y40.991
X-0.766 Y41.26
X-0.787 Y41.517
X-0.806 Y41.673
X-0.829 Y41.821
X-0.841 Y41.877
X-0.944 Y42.2
X-1.113 Y42.495
X-1.341 Y42.747
X-1.616 Y42.946
X-1.699 Y42.993
X-1.839 Y43.084
X-1.927 Y43.149
G3 X-2.155 Y43.246 I-0.359 J-0.524
G1 X-2.252 Y43.267 Z13.208
X-2.347 Y43.287 Z13.231
X-2.437 Y43.306 Z13.269
X-2.52 Y43.323 Z13.321
X-2.595 Y43.339 Z13.386
X-2.658 Y43.352 Z13.462
X-2.709 Y43.363 Z13.547
X-2.746 Y43.371 Z13.639
X-2.769 Y43.375 Z13.736
X-2.777 Y43.377 Z13.835
G0 Z18.7
X-2.585 Y58.946
Z14.47
G1 Z13.835 F1219.2
X-2.579 Y58.94 Z13.736
X-2.563 Y58.924 Z13.639
X-2.535 Y58.898 Z13.547
X-2.497 Y58.862 Z13.462
X-2.45 Y58.818 Z13.386
X-2.395 Y58.766 Z13.321
X-2.333 Y58.707 Z13.269
X-2.267 Y58.644 Z13.231
X-2.196 Y58.577 Z13.208
X-2.124 Y58.509 Z13.2
G3 X-1.876 Y58.489 I0.136 J0.144
G1 X-1.839 Y58.516
X-1.699 Y58.607
X-1.616 Y58.654
X-1.579 Y58.674
X-1.495 Y58.723
X-1.375 Y58.813
X-1.268 Y58.918
X-1.173 Y59.034
X-1.088 Y59.158
X-1.01 Y59.286
X-0.941 Y59.419
X-0.877 Y59.555
X-0.817 Y59.698
X-0.754 Y59.867
X-0.691 Y60.061
X-0.627 Y60.285
X-0.56 Y60.557
X-0.498 Y60.867
X-0.429 Y61.292
X-0.372 Y61.758
X-0.313 Y62.469
X-0.271 Y63.45
X-0.259 Y64.431
X-0.256 Y65.413
X-0.254 Y67.376
Y99.766
X-0.15 Y100.742
X-0.055 Y100.967
X0.07 Y101.179
X0.226 Y101.369
X0.409 Y101.532
X0.615 Y101.665
X0.839 Y101.765
X1.076 Y101.829
X2.051 Y101.937
X2.556 Y101.897
X3.537 Y101.858
X4.518 Y101.854
X7.463
X57.52
X99.725
X100.214 Y101.812
X100.699 Y101.739
X100.925 Y101.643
X101.134 Y101.513
X101.32 Y101.353
X101.479 Y101.166
X101.607 Y100.957
X101.701 Y100.731
X101.936 Y99.778
X101.894 Y99.246
X101.856 Y98.265
X101.854 Y97.283
Y95.32
Y61.949
X101.855 Y61.11
X101.87 Y60.723
X101.888 Y60.507
X101.912 Y60.301
X101.941 Y60.118
X101.971 Y59.971
X102.007 Y59.826
X102.012 Y59.81
X102.144 Y59.498
X102.34 Y59.221
X102.59 Y58.992
X102.882 Y58.821
X102.993 Y58.771
X103.216 Y58.654
G3 X103.456 Y58.592 I0.275 J0.572
G1 X103.555 Y58.587 Z13.208
X103.652 Y58.582 Z13.231
X103.744 Y58.576 Z13.269
X103.829 Y58.572 Z13.321
X103.904 Y58.568 Z13.386
X103.969 Y58.564 Z13.462
X104.021 Y58.561 Z13.547
X104.059 Y58.559 Z13.639
X104.082 Y58.558 Z13.736
X104.09 Y58.557 Z13.835
G0 Z18.7
X104.185 Y42.654
Z14.47
G1 Z13.835 F1219.2
X104.179 Y42.66 Z13.736
X104.163 Y42.676 Z13.639
X104.135 Y42.702 Z13.547
X104.097 Y42.738 Z13.462
X104.05 Y42.782 Z13.386
X103.995 Y42.834 Z13.321
X103.933 Y42.893 Z13.269
X103.867 Y42.956 Z13.231
X103.796 Y43.023 Z13.208
X103.724 Y43.091 Z13.2
G3 X103.476 Y43.111 I-0.136 J-0.144
G1 X103.439 Y43.084
X103.299 Y42.993
X103.216 Y42.946
X103.179 Y42.926
X103.095 Y42.877
X102.975 Y42.787
X102.868 Y42.682
X102.773 Y42.566
X102.688 Y42.442
X102.61 Y42.314
X102.541 Y42.181
X102.477 Y42.045
X102.417 Y41.902
X102.354 Y41.733
X102.291 Y41.539
X102.227 Y41.315
X102.16 Y41.043
X102.098 Y40.733
X102.029 Y40.308
X101.972 Y39.842
X101.913 Y39.131
X101.871 Y38.15
X101.859 Y37.169
X101.856 Y36.187
X101.854 Y34.224
Y1.834
X101.75 Y0.858
X101.654 Y0.633
X101.53 Y0.421
X101.374 Y0.232
X101.191 Y0.068
X100.984 Y-0.065
X100.76 Y-0.164
X100.523 Y-0.228
X99.548 Y-0.335
X99.027 Y-0.295
X98.046 Y-0.258
X97.064 Y-0.254
X94.12
X44.063
X1.857
X1.369 Y-0.209
X0.883 Y-0.136
X0.659 Y-0.037
X0.453 Y0.096
X0.269 Y0.259
X0.113 Y0.449
X-0.012 Y0.66
X-0.103 Y0.887
X-0.322 Y1.844
X-0.281 Y2.472
X-0.255 Y3.454
X-0.254 Y4.435
Y6.398
Y39.77
X-0.255 Y40.492
X-0.271 Y40.878
X-0.288 Y41.094
X-0.312 Y41.3
X-0.341 Y41.483
X-0.371 Y41.63
X-0.407 Y41.775
X-0.412 Y41.79
X-0.544 Y42.102
X-0.74 Y42.379
X-0.99 Y42.609
X-1.282 Y42.779
X-1.393 Y42.829
X-1.616 Y42.946
G3 X-1.856 Y43.008 I-0.275 J-0.572
G1 X-1.955 Y43.013 Z13.208
X-2.052 Y43.018 Z13.231
X-2.144 Y43.024 Z13.269
X-2.229 Y43.028 Z13.321
X-2.304 Y43.032 Z13.386
X-2.369 Y43.036 Z13.462
X-2.421 Y43.039 Z13.547
X-2.459 Y43.041 Z13.639
X-2.482 Y43.042 Z13.736
X-2.49 Y43.043 Z13.835
G0 Z18.7
X-2.211 Y59.232
Z14.47
G1 Z13.835 F1219.2
X-2.206 Y59.226 Z13.736
X-2.192 Y59.208 Z13.639
X-2.169 Y59.178 Z13.547
X-2.137 Y59.136 Z13.462
X-2.097 Y59.085 Z13.386
X-2.051 Y59.025 Z13.321
X-1.999 Y58.958 Z13.269
X-1.942 Y58.886 Z13.231
X-1.883 Y58.809 Z13.208
X-1.822 Y58.731 Z13.2
G3 X-1.579 Y58.674 I0.157 J0.122
G1 X-1.393 Y58.771
X-1.262 Y58.83
X-1.234 Y58.841
X-1.157 Y58.877
X-1.032 Y58.959
X-0.919 Y59.059
X-0.818 Y59.169
X-0.726 Y59.288
X-0.642 Y59.412
X-0.565 Y59.541
X-0.495 Y59.673
X-0.43 Y59.809
X-0.365 Y59.963
X-0.297 Y60.141
X-0.227 Y60.347
X-0.157 Y60.585
X-0.09 Y60.851
X-0.02 Y61.187
X0.047 Y61.576
X0.114 Y62.095
X0.173 Y62.752
X0.223 Y63.732
X0.239 Y64.714
X0.244 Y65.695
X0.245 Y66.677
X0.246 Y85.326
Y100.048
X0.286 Y100.29
X0.355 Y100.526
X0.458 Y100.748
X0.595 Y100.952
X0.761 Y101.132
X0.954 Y101.285
X1.167 Y101.406
X1.397 Y101.492
X1.637 Y101.543
X2.617 Y101.593
X2.737 Y101.567
X2.95 Y101.526
X3.238 Y101.483
X3.643 Y101.438
X4.295 Y101.392
X5.276 Y101.361
X6.257 Y101.356
X8.22 Y101.354
X58.278
X99.501
X99.991 Y101.327
X100.235 Y101.296
X100.472 Y101.232
X100.696 Y101.132
X100.901 Y100.998
X101.084 Y100.835
X101.24 Y100.645
X101.364 Y100.433
X101.454 Y100.205
X101.508 Y99.966
X101.575 Y98.987
X101.55 Y98.866
X101.509 Y98.633
X101.466 Y98.314
X101.422 Y97.851
X101.375 Y97.029
X101.358 Y96.048
X101.355 Y95.066
X101.354 Y93.103
X101.355 Y61.695
X101.367 Y61.228
X101.39 Y60.891
X101.416 Y60.643
X101.439 Y60.487
X101.471 Y60.314
X101.507 Y60.154
X101.532 Y60.061
X101.642 Y59.769
X101.805 Y59.502
X102.015 Y59.272
X102.266 Y59.085
X102.547 Y58.95
X102.77 Y58.867
X102.862 Y58.83
X102.882 Y58.821
G3 X103.126 Y58.774 I0.239 J0.588
G1 X103.225 Z13.208
X103.322 Y58.775 Z13.231
X103.414 Y58.776 Z13.269
X103.499 Z13.321
X103.575 Y58.777 Z13.386
X103.639 Z13.462
X103.691 Z13.547
X103.73 Y58.778 Z13.639
X103.753 Z13.736
X103.761 Z13.835
G0 Z18.7
X103.811 Y42.368
Z14.47
G1 Z13.835 F1219.2
X103.806 Y42.374 Z13.736
X103.792 Y42.392 Z13.639
X103.769 Y42.422 Z13.547
X103.737 Y42.464 Z13.462
X103.697 Y42.515 Z13.386
X103.651 Y42.574 Z13.321
X103.598 Y42.642 Z13.269
X103.542 Y42.714 Z13.231
X103.483 Y42.791 Z13.208
X103.422 Y42.869 Z13.2
G3 X103.179 Y42.926 I-0.157 J-0.122
G1 X102.993 Y42.829
X102.862 Y42.77
X102.834 Y42.759
X102.757 Y42.723
X102.632 Y42.641
X102.519 Y42.541
X102.418 Y42.431
X102.326 Y42.312
X102.242 Y42.188
X102.165 Y42.059
X102.095 Y41.927
X102.03 Y41.791
X101.965 Y41.637
X101.897 Y41.459
X101.828 Y41.253
X101.757 Y41.015
X101.69 Y40.749
X101.62 Y40.413
X101.553 Y40.024
X101.486 Y39.505
X101.427 Y38.848
X101.377 Y37.868
X101.361 Y36.887
X101.356 Y35.905
X101.355 Y34.924
X101.354 Y16.275
Y1.552
X101.314 Y1.31
X101.245 Y1.074
X101.142 Y0.852
X101.005 Y0.648
X100.838 Y0.468
X100.646 Y0.316
X100.433 Y0.195
X100.203 Y0.108
X99.963 Y0.058
X98.982 Y0.008
X98.863 Y0.034
X98.649 Y0.074
X98.362 Y0.117
X97.955 Y0.162
X97.298 Y0.208
X96.317 Y0.239
X95.336 Y0.244
X93.373 Y0.246
X43.316
X2.092
X1.602 Y0.273
X1.359 Y0.305
X1.122 Y0.37
X0.898 Y0.471
X0.693 Y0.605
X0.511 Y0.769
X0.356 Y0.96
X0.232 Y1.172
X0.143 Y1.4
X0.089 Y1.64
X0.027 Y2.619
X0.051 Y2.739
X0.091 Y2.971
X0.134 Y3.288
X0.179 Y3.755
X0.225 Y4.587
X0.242 Y5.568
X0.245 Y6.549
X0.246 Y8.513
X0.245 Y39.921
X0.232 Y40.381
X0.21 Y40.716
X0.183 Y40.962
X0.161 Y41.117
X0.128 Y41.291
X0.092 Y41.45
X0.067 Y41.54
X-0.042 Y41.832
X-0.205 Y42.098
X-0.416 Y42.329
X-0.666 Y42.515
X-0.947 Y42.65
X-1.17 Y42.733
X-1.262 Y42.77
X-1.282 Y42.779
G3 X-1.526 Y42.826 I-0.239 J-0.588
G1 X-1.625 Z13.208
X-1.722 Y42.825 Z13.231
X-1.814 Y42.824 Z13.269
X-1.899 Z13.321
X-1.975 Y42.823 Z13.386
X-2.039 Z13.462
X-2.091 Z13.547
X-2.13 Y42.822 Z13.639
X-2.153 Z13.736
X-2.161 Z13.835
G0 Z18.7
X-1.81 Y59.457
Z14.47
G1 Z13.835 F1219.2
X-1.806 Y59.451 Z13.736
X-1.794 Y59.431 Z13.639
X-1.773 Y59.399 Z13.547
X-1.745 Y59.355 Z13.462
X-1.711 Y59.3 Z13.386
X-1.67 Y59.236 Z13.321
X-1.625 Y59.165 Z13.269
X-1.575 Y59.087 Z13.231
X-1.524 Y59.005 Z13.208
X-1.47 Y58.921 Z13.2
G3 X-1.234 Y58.841 I0.168 J0.106
G1 X-1.17 Y58.867
X-0.947 Y58.95
X-0.91 Y58.961
X-0.836 Y58.988
X-0.704 Y59.06
X-0.586 Y59.152
X-0.477 Y59.255
X-0.378 Y59.368
X-0.287 Y59.487
X-0.203 Y59.612
X-0.126 Y59.74
X-0.055 Y59.873
X0.012 Y60.01
X0.086 Y60.179
X0.155 Y60.354
X0.23 Y60.569
X0.301 Y60.802
X0.377 Y61.09
X0.45 Y61.418
X0.521 Y61.814
X0.592 Y62.316
X0.656 Y62.951
X0.714 Y63.889
X0.735 Y64.87
X0.742 Y65.852
X0.745 Y66.833
X0.746 Y70.759
Y99.714
X0.769 Y99.958
X0.824 Y100.197
X0.916 Y100.425
X1.041 Y100.636
X1.197 Y100.825
X1.381 Y100.988
X1.587 Y101.121
X1.812 Y101.22
X2.049 Y101.283
X2.293 Y101.31
X3.273 Y101.263
X3.413 Y101.21
X3.556 Y101.165
X3.712 Y101.123
X3.914 Y101.077
X4.183 Y101.027
X4.489 Y100.983
X4.934 Y100.936
X5.657 Y100.888
X6.638 Y100.861
X7.62 Y100.856
X8.601 Y100.855
X58.659 Y100.854
X99.882
X100.119 Y100.79
X100.345 Y100.693
X100.552 Y100.562
X100.738 Y100.402
X100.896 Y100.214
X101.023 Y100.004
X101.117 Y99.777
X101.174 Y99.539
X101.195 Y99.294
X101.123 Y98.315
X101.069 Y98.062
X101.023 Y97.798
X100.973 Y97.424
X100.923 Y96.891
X100.874 Y95.991
X100.859 Y95.01
X100.855 Y94.028
X100.854 Y92.065
Y62.62
X100.86 Y61.828
X100.88 Y61.393
X100.907 Y61.072
X100.936 Y60.843
X100.969 Y60.644
X101.006 Y60.461
X101.042 Y60.316
X101.085 Y60.172
X101.134 Y60.03
X101.15 Y59.99
X101.292 Y59.714
X101.486 Y59.471
X101.723 Y59.27
X101.995 Y59.12
X102.291 Y59.025
X102.324 Y59.018
X102.547 Y58.95
G3 X102.794 Y58.934 I0.164 J0.613
G1 X102.893 Y58.947 Z13.208
X102.989 Y58.959 Z13.231
X103.08 Y58.972 Z13.269
X103.164 Y58.983 Z13.321
X103.239 Y58.993 Z13.386
X103.303 Y59.001 Z13.462
X103.355 Y59.008 Z13.547
X103.393 Y59.013 Z13.639
X103.416 Y59.016 Z13.736
X103.424 Y59.017 Z13.835
G0 Z18.7
X103.41 Y42.143
Z14.47
G1 Z13.835 F1219.2
X103.406 Y42.149 Z13.736
X103.394 Y42.169 Z13.639
X103.373 Y42.201 Z13.547
X103.346 Y42.245 Z13.462
X103.311 Y42.3 Z13.386
X103.27 Y42.364 Z13.321
X103.225 Y42.435 Z13.269
X103.176 Y42.513 Z13.231
X103.124 Y42.595 Z13.208
X103.07 Y42.679 Z13.2
G3 X102.834 Y42.759 I-0.168 J-0.106
G1 X102.77 Y42.733
X102.547 Y42.65
X102.51 Y42.639
X102.436 Y42.612
X102.304 Y42.54
X102.186 Y42.448
X102.077 Y42.345
X101.978 Y42.232
X101.887 Y42.113
X101.803 Y41.988
X101.726 Y41.86
X101.655 Y41.727
X101.588 Y41.59
X101.514 Y41.421
X101.445 Y41.246
X101.37 Y41.031
X101.299 Y40.798
X101.223 Y40.51
X101.15 Y40.182
X101.079 Y39.786
X101.008 Y39.284
X100.944 Y38.649
X100.886 Y37.711
X100.865 Y36.73
X100.858 Y35.748
X100.855 Y34.767
X100.854 Y30.841
Y1.886
X100.831 Y1.642
X100.775 Y1.403
X100.684 Y1.175
X100.559 Y0.964
X100.403 Y0.775
X100.219 Y0.612
X100.012 Y0.48
X99.788 Y0.38
X99.551 Y0.317
X99.307 Y0.291
X98.327 Y0.338
X98.186 Y0.391
X98.043 Y0.436
X97.887 Y0.478
X97.686 Y0.523
X97.417 Y0.573
X97.109 Y0.618
X96.662 Y0.665
X95.934 Y0.713
X94.953 Y0.739
X93.971 Y0.744
X92.989 Y0.745
X42.932 Y0.746
X1.709
X1.472 Y0.812
X1.247 Y0.91
X1.04 Y1.042
X0.856 Y1.204
X0.699 Y1.393
X0.573 Y1.603
X0.481 Y1.831
X0.426 Y2.07
X0.407 Y2.315
X0.485 Y3.293
X0.54 Y3.559
X0.587 Y3.839
X0.637 Y4.243
X0.687 Y4.82
X0.733 Y5.801
X0.743 Y6.782
X0.745 Y7.764
X0.746 Y9.727
Y39.172
X0.738 Y39.839
X0.718 Y40.247
X0.69 Y40.557
X0.662 Y40.776
X0.627 Y40.98
X0.591 Y41.153
X0.554 Y41.299
X0.51 Y41.442
X0.461 Y41.584
X0.447 Y41.618
X0.304 Y41.892
X0.11 Y42.133
X-0.126 Y42.332
X-0.397 Y42.481
X-0.691 Y42.575
X-0.724 Y42.582
X-0.947 Y42.65
G3 X-1.194 Y42.666 I-0.164 J-0.613
G1 X-1.293 Y42.653 Z13.208
X-1.389 Y42.641 Z13.231
X-1.48 Y42.629 Z13.269
X-1.564 Y42.617 Z13.321
X-1.639 Y42.607 Z13.386
X-1.703 Y42.599 Z13.462
X-1.755 Y42.592 Z13.547
X-1.793 Y42.587 Z13.639
X-1.816 Y42.584 Z13.736
X-1.824 Y42.583 Z13.835
G0 Z18.7
X-1.427 Y59.627
Z14.47
G1 Z13.835 F1219.2
X-1.424 Y59.62 Z13.736
X-1.413 Y59.6 Z13.639
X-1.396 Y59.566 Z13.547
X-1.372 Y59.519 Z13.462
X-1.342 Y59.462 Z13.386
X-1.308 Y59.394 Z13.321
X-1.269 Y59.319 Z13.269
X-1.227 Y59.237 Z13.231
X-1.183 Y59.151 Z13.208
X-1.138 Y59.062 Z13.2
G3 X-0.91 Y58.961 I0.177 J0.09
G1 X-0.724 Y59.018
X-0.64 Y59.036
X-0.556 Y59.058
X-0.416 Y59.114
X-0.289 Y59.193
X-0.171 Y59.286
X-0.063 Y59.39
X0.036 Y59.502
X0.129 Y59.62
X0.214 Y59.744
X0.293 Y59.871
X0.366 Y60.002
X0.442 Y60.15
X0.517 Y60.313
X0.593 Y60.496
X0.673 Y60.714
X0.747 Y60.942
X0.83 Y61.235
X0.903 Y61.542
X0.982 Y61.937
X1.055 Y62.398
X1.126 Y62.998
X1.188 Y63.787
X1.227 Y64.767
X1.24 Y65.749
X1.244 Y66.73
X1.246 Y68.693
Y99.611
X1.29 Y99.852
X1.371 Y100.084
X1.487 Y100.3
X1.635 Y100.496
X1.811 Y100.667
X2.012 Y100.808
X2.232 Y100.917
X2.466 Y100.991
X2.708 Y101.028
X2.954 Y101.027
X3.923 Y100.872
X4.059 Y100.809
X4.199 Y100.754
X4.341 Y100.707
X4.514 Y100.657
X4.718 Y100.608
X4.947 Y100.561
X5.26 Y100.51
X5.682 Y100.458
X6.272 Y100.41
X7.252 Y100.367
X8.234 Y100.357
X9.215 Y100.355
X10.197 Y100.354
X28.027
X28.167 Y100.36
X28.305 Y100.379
X28.441 Y100.409
X28.495 Y100.424
X28.718 Y100.466
X29.164 Y100.519
X29.387 Y100.522
X29.834 Y100.497
X29.956 Y100.479
X30.445 Y100.433
X31.146 Y100.387
X32.128 Y100.361
X33.109 Y100.356
X35.072 Y100.354
X70.882
X71.027 Y100.361
X71.171 Y100.381
X71.313 Y100.414
X71.543 Y100.465
X71.766 Y100.497
X72.213 Y100.522
X72.436 Y100.519
X72.882 Y100.466
X72.984 Y100.454
X73.521 Y100.409
X74.501 Y100.365
X75.483 Y100.356
X76.464 Y100.355
X99.53 Y100.354
X99.772 Y100.314
X100.005 Y100.237
X100.224 Y100.126
X100.422 Y99.982
X100.596 Y99.809
X100.741 Y99.611
X100.855 Y99.393
X100.933 Y99.16
X100.974 Y98.919
X100.978 Y98.673
X100.841 Y97.701
X100.777 Y97.565
X100.724 Y97.425
X100.678 Y97.283
X100.63 Y97.11
X100.584 Y96.911
X100.54 Y96.684
X100.493 Y96.375
X100.445 Y95.943
X100.396 Y95.279
X100.363 Y94.298
X100.356 Y93.317
X100.355 Y92.335
X100.354 Y77.613
Y62.89
X100.362 Y62.126
X100.384 Y61.666
X100.414 Y61.329
X100.449 Y61.055
X100.487 Y60.828
X100.522 Y60.662
X100.561 Y60.506
X100.609 Y60.343
X100.656 Y60.201
X100.711 Y60.061
X100.74 Y59.999
X100.899 Y59.725
X101.11 Y59.489
X101.363 Y59.299
X101.648 Y59.163
X101.955 Y59.087
X102.101 Y59.065
X102.291 Y59.025
G3 X102.539 Y59.029 I0.112 J0.625
G1 X102.636 Y59.051 Z13.208
X102.731 Y59.071 Z13.231
X102.821 Y59.091 Z13.269
X102.904 Y59.109 Z13.321
X102.978 Y59.126 Z13.386
X103.041 Y59.139 Z13.462
X103.092 Y59.151 Z13.547
X103.129 Y59.159 Z13.639
X103.152 Y59.164 Z13.736
X103.159 Y59.165 Z13.835
G0 Z18.7
X103.027 Y41.973
Z14.47
G1 Z13.835 F1219.2
X103.024 Y41.979 Z13.736
X103.013 Y42 Z13.639
X102.996 Y42.034 Z13.547
X102.972 Y42.08 Z13.462
X102.942 Y42.138 Z13.386
X102.908 Y42.206 Z13.321
X102.869 Y42.281 Z13.269
X102.827 Y42.363 Z13.231
X102.783 Y42.449 Z13.208
X102.738 Y42.538 Z13.2
G3 X102.51 Y42.639 I-0.177 J-0.09
G1 X102.324 Y42.582
X102.24 Y42.564
X102.156 Y42.542
X102.017 Y42.486
X101.889 Y42.407
X101.771 Y42.314
X101.663 Y42.21
X101.564 Y42.098
X101.471 Y41.98
X101.386 Y41.856
X101.307 Y41.729
X101.234 Y41.598
X101.158 Y41.45
X101.083 Y41.287
X101.007 Y41.104
X100.927 Y40.886
X100.853 Y40.658
X100.771 Y40.365
X100.697 Y40.058
X100.618 Y39.663
X100.545 Y39.202
X100.474 Y38.602
X100.412 Y37.814
X100.373 Y36.833
X100.36 Y35.851
X100.356 Y34.87
X100.354 Y32.907
Y1.989
X100.31 Y1.748
X100.229 Y1.516
X100.113 Y1.3
X99.965 Y1.104
X99.788 Y0.933
X99.588 Y0.792
X99.368 Y0.683
X99.134 Y0.609
X98.891 Y0.573
X98.646 Y0.574
X97.677 Y0.729
X97.541 Y0.792
X97.401 Y0.846
X97.259 Y0.894
X97.086 Y0.943
X96.88 Y0.993
X96.651 Y1.039
X96.338 Y1.09
X95.915 Y1.142
X95.322 Y1.191
X94.341 Y1.233
X93.36 Y1.243
X92.378 Y1.245
X91.397 Y1.246
X73.573
X73.433 Y1.24
X73.295 Y1.221
X73.159 Y1.191
X73.105 Y1.176
X72.882 Y1.134
X72.436 Y1.082
X72.213 Y1.078
X71.766 Y1.103
X71.644 Y1.121
X71.155 Y1.167
X70.453 Y1.213
X69.472 Y1.239
X68.491 Y1.244
X66.528 Y1.246
X30.718
X30.573 Y1.239
X30.429 Y1.219
X30.287 Y1.186
X30.057 Y1.135
X29.834 Y1.103
X29.387 Y1.078
X29.164 Y1.082
X28.718 Y1.134
X28.616 Y1.146
X28.079 Y1.191
X27.099 Y1.235
X26.117 Y1.244
X25.136 Y1.245
X2.07 Y1.246
X1.828 Y1.285
X1.595 Y1.362
X1.376 Y1.473
X1.177 Y1.617
X1.003 Y1.79
X0.857 Y1.987
X0.744 Y2.205
X0.665 Y2.437
X0.623 Y2.679
X0.619 Y2.925
X0.755 Y3.897
X0.819 Y4.032
X0.874 Y4.172
X0.921 Y4.314
X0.966 Y4.476
X1.015 Y4.687
X1.061 Y4.921
X1.106 Y5.213
X1.154 Y5.639
X1.202 Y6.274
X1.236 Y7.255
X1.244 Y8.237
X1.245 Y9.218
X1.246 Y23.941
Y38.664
X1.24 Y39.435
X1.219 Y39.898
X1.189 Y40.248
X1.154 Y40.526
X1.115 Y40.76
X1.08 Y40.932
X1.043 Y41.082
X0.995 Y41.247
X0.947 Y41.39
X0.893 Y41.529
X0.862 Y41.598
X0.703 Y41.872
X0.493 Y42.109
X0.239 Y42.3
X-0.047 Y42.436
X-0.355 Y42.513
X-0.501 Y42.535
X-0.691 Y42.575
G3 X-0.939 Y42.57 I-0.112 J-0.625
G1 X-1.036 Y42.549 Z13.208
X-1.13 Y42.529 Z13.231
X-1.22 Y42.509 Z13.269
X-1.303 Y42.491 Z13.321
X-1.377 Y42.474 Z13.386
X-1.44 Y42.461 Z13.462
X-1.491 Y42.449 Z13.547
X-1.529 Y42.441 Z13.639
X-1.551 Y42.436 Z13.736
X-1.559 Y42.435 Z13.835
G0 Z18.7
X-1.1 Y59.743
Z14.47
G1 Z13.835 F1219.2
X-1.097 Y59.736 Z13.736
X-1.088 Y59.714 Z13.639
X-1.073 Y59.679 Z13.547
X-1.054 Y59.631 Z13.462
X-1.029 Y59.571 Z13.386
X-1 Y59.501 Z13.321
X-0.968 Y59.422 Z13.269
X-0.933 Y59.337 Z13.231
X-0.896 Y59.248 Z13.208
X-0.859 Y59.156 Z13.2
G3 X-0.64 Y59.036 I0.184 J0.075
G1 X-0.501 Y59.065
X-0.348 Y59.088
X-0.259 Y59.105
X-0.115 Y59.149
X0.018 Y59.218
X0.142 Y59.303
X0.256 Y59.4
X0.363 Y59.505
X0.462 Y59.618
X0.555 Y59.736
X0.64 Y59.859
X0.721 Y59.985
X0.796 Y60.115
X0.877 Y60.27
X0.956 Y60.436
X1.036 Y60.622
X1.121 Y60.846
X1.2 Y61.077
X1.285 Y61.364
X1.365 Y61.683
X1.446 Y62.062
X1.529 Y62.548
X1.597 Y63.067
X1.667 Y63.826
X1.718 Y64.806
X1.736 Y65.788
X1.743 Y66.769
X1.745 Y67.751
X1.746 Y71.677
Y99.159
X1.758 Y99.404
X1.806 Y99.645
X1.89 Y99.875
X2.009 Y100.09
X2.16 Y100.284
X2.338 Y100.452
X2.541 Y100.59
X2.762 Y100.696
X2.997 Y100.766
X3.24 Y100.8
X3.486 Y100.795
X3.727 Y100.753
X4.657 Y100.437
X4.79 Y100.367
X4.927 Y100.307
X5.068 Y100.255
X5.225 Y100.205
X5.397 Y100.157
X5.603 Y100.108
X5.878 Y100.054
X6.237 Y99.999
X6.658 Y99.951
X7.331 Y99.9
X8.311 Y99.865
X9.293 Y99.857
X10.274 Y99.855
X22.053 Y99.854
X26.771
X27.011 Y99.873
X27.246 Y99.927
X27.469 Y100.016
X27.628 Y100.093
X27.826 Y100.186
X28.049 Y100.285
X28.272 Y100.364
X28.441 Y100.409
G3 X28.732 Y100.598 I-0.187 J0.607
G1 X29.031 Y100.94
G2 X29.793 Y100.668 I0.328 J-0.286
G3 X29.795 Y100.648 I0.198 J0.006
X29.956 Y100.479 I0.197 J0.027
G1 X30.057 Y100.465
X30.28 Y100.416
X30.503 Y100.353
X30.604 Y100.316
X30.726 Y100.27
X30.793 Y100.24
X30.869 Y100.212
X31.01 Y100.162
X31.154 Y100.12
X31.311 Y100.082
X31.507 Y100.042
X31.767 Y99.999
X32.129 Y99.955
X32.675 Y99.909
X33.656 Y99.865
X34.637 Y99.857
X35.619 Y99.855
X69.713 Y99.854
X69.963 Y99.878
X70.204 Y99.947
X70.428 Y100.061
X70.651 Y100.172
X70.874 Y100.27
X70.996 Y100.316
X71.097 Y100.353
X71.313 Y100.414
G3 X71.561 Y100.563 I-0.194 J0.605
G1 X71.989 Y100.978
G2 X72.727 Y100.661 I0.303 J-0.312
G3 X72.728 Y100.641 I0.198 J-0.002
X72.882 Y100.466 I0.198 J0.018
G1 X73.105 Y100.424
X73.328 Y100.364
X73.551 Y100.285
X73.618 Y100.255
X73.779 Y100.194
X73.921 Y100.146
X74.066 Y100.106
X74.235 Y100.067
X74.456 Y100.025
X74.74 Y99.983
X75.15 Y99.938
X75.818 Y99.891
X76.799 Y99.862
X77.781 Y99.856
X79.744 Y99.854
X99.374
X99.612 Y99.796
X99.839 Y99.702
X100.048 Y99.574
X100.236 Y99.416
X100.396 Y99.23
X100.526 Y99.022
X100.623 Y98.797
X100.683 Y98.559
X100.706 Y98.315
X100.692 Y98.07
X100.482 Y97.111
X100.404 Y96.983
X100.338 Y96.848
X100.281 Y96.709
X100.231 Y96.568
X100.181 Y96.405
X100.131 Y96.214
X100.084 Y96
X100.033 Y95.712
X99.979 Y95.322
X99.93 Y94.835
X99.88 Y93.998
X99.86 Y93.016
X99.856 Y92.035
X99.854 Y90.072
Y76.331
Y63.571
X99.859 Y62.589
X99.881 Y62.039
X99.913 Y61.639
X99.949 Y61.339
X99.991 Y61.07
X100.035 Y60.851
X100.077 Y60.677
X100.118 Y60.533
X100.172 Y60.368
X100.224 Y60.227
X100.283 Y60.089
X100.349 Y59.955
X100.364 Y59.929
X100.543 Y59.67
X100.769 Y59.452
X101.034 Y59.283
X101.327 Y59.169
X101.637 Y59.115
X101.878 Y59.098
X101.955 Y59.087
G3 X102.202 Y59.108 I0.07 J0.631
G1 X102.297 Y59.136 Z13.208
X102.39 Y59.163 Z13.231
X102.479 Y59.188 Z13.269
X102.56 Y59.212 Z13.321
X102.633 Y59.233 Z13.386
X102.695 Y59.251 Z13.462
X102.745 Y59.266 Z13.547
X102.782 Y59.276 Z13.639
X102.804 Y59.283 Z13.736
X102.812 Y59.285 Z13.835
G0 Z18.7
X102.7 Y41.857
Z14.47
G1 Z13.835 F1219.2
X102.697 Y41.864 Z13.736
X102.688 Y41.886 Z13.639
X102.673 Y41.921 Z13.547
X102.654 Y41.969 Z13.462
X102.629 Y42.029 Z13.386
X102.6 Y42.099 Z13.321
X102.568 Y42.178 Z13.269
X102.533 Y42.263 Z13.231
X102.496 Y42.352 Z13.208
X102.459 Y42.444 Z13.2
G3 X102.24 Y42.564 I-0.184 J-0.075
G1 X102.101 Y42.535
X101.948 Y42.512
X101.859 Y42.495
X101.715 Y42.451
X101.582 Y42.382
X101.458 Y42.297
X101.344 Y42.2
X101.237 Y42.095
X101.138 Y41.982
X101.045 Y41.864
X100.96 Y41.741
X100.879 Y41.614
X100.804 Y41.485
X100.723 Y41.33
X100.644 Y41.163
X100.564 Y40.978
X100.479 Y40.754
X100.4 Y40.523
X100.315 Y40.236
X100.235 Y39.917
X100.154 Y39.538
X100.071 Y39.052
X100.003 Y38.533
X99.933 Y37.774
X99.882 Y36.794
X99.864 Y35.812
X99.857 Y34.831
X99.855 Y33.849
X99.854 Y29.923
Y2.441
X99.842 Y2.196
X99.794 Y1.955
X99.71 Y1.725
X99.591 Y1.51
X99.44 Y1.317
X99.261 Y1.149
X99.059 Y1.01
X98.837 Y0.904
X98.602 Y0.834
X98.359 Y0.801
X98.114 Y0.805
X97.872 Y0.848
X96.943 Y1.164
X96.81 Y1.234
X96.672 Y1.294
X96.532 Y1.346
X96.375 Y1.396
X96.201 Y1.444
X95.996 Y1.493
X95.72 Y1.546
X95.359 Y1.602
X94.936 Y1.65
X94.259 Y1.701
X93.278 Y1.735
X92.296 Y1.743
X91.315 Y1.745
X78.555 Y1.746
X74.829
X74.589 Y1.727
X74.354 Y1.673
X74.131 Y1.584
X73.972 Y1.507
X73.774 Y1.414
X73.551 Y1.315
X73.328 Y1.236
X73.159 Y1.191
G3 X72.941 Y1.073 I0.187 J-0.607
X72.867 Y1.002 I0.405 J-0.489
G1 X72.569 Y0.66
G2 X71.807 Y0.932 I-0.328 J0.286
G3 X71.805 Y0.952 I-0.198 J-0.006
X71.644 Y1.121 I-0.197 J-0.027
G1 X71.543 Y1.135
X71.32 Y1.184
X71.097 Y1.247
X70.996 Y1.284
X70.874 Y1.33
X70.807 Y1.36
X70.731 Y1.388
X70.59 Y1.438
X70.446 Y1.48
X70.289 Y1.518
X70.093 Y1.558
X69.833 Y1.601
X69.471 Y1.645
X68.924 Y1.691
X67.944 Y1.735
X66.962 Y1.743
X65.981 Y1.745
X31.886 Y1.746
X31.637 Y1.722
X31.396 Y1.653
X31.172 Y1.539
X30.949 Y1.428
X30.726 Y1.33
X30.604 Y1.284
X30.503 Y1.247
X30.287 Y1.186
G3 X29.955 Y0.938 I0.194 J-0.605
G2 X28.854 Y1.025 I-0.526 J0.356
G3 X28.718 Y1.134 I-0.18 J-0.084
G1 X28.495 Y1.176
X28.272 Y1.236
X28.049 Y1.315
X27.982 Y1.345
X27.821 Y1.406
X27.679 Y1.454
X27.534 Y1.494
X27.365 Y1.533
X27.144 Y1.575
X26.86 Y1.617
X26.45 Y1.662
X25.782 Y1.709
X24.801 Y1.738
X23.819 Y1.744
X21.856 Y1.746
X2.226
X1.987 Y1.803
X1.761 Y1.897
X1.551 Y2.024
X1.363 Y2.183
X1.202 Y2.368
X1.072 Y2.576
X0.975 Y2.801
X0.914 Y3.039
X0.891 Y3.283
X0.905 Y3.528
X1.113 Y4.487
X1.192 Y4.615
X1.259 Y4.749
X1.317 Y4.887
X1.367 Y5.029
X1.417 Y5.19
X1.465 Y5.374
X1.512 Y5.586
X1.564 Y5.871
X1.618 Y6.25
X1.666 Y6.725
X1.716 Y7.525
X1.739 Y8.506
X1.744 Y9.487
X1.746 Y11.45
Y25.192
Y37.951
X1.743 Y38.933
X1.722 Y39.508
X1.692 Y39.918
X1.656 Y40.227
X1.614 Y40.499
X1.57 Y40.725
X1.528 Y40.904
X1.488 Y41.049
X1.434 Y41.214
X1.383 Y41.355
X1.325 Y41.494
X1.259 Y41.628
X1.241 Y41.662
X1.062 Y41.923
X0.836 Y42.144
X0.57 Y42.315
X0.275 Y42.43
X-0.037 Y42.485
X-0.278 Y42.502
X-0.355 Y42.513
G3 X-0.601 Y42.492 I-0.07 J-0.631
G1 X-0.697 Y42.464 Z13.208
X-0.79 Y42.437 Z13.231
X-0.878 Y42.412 Z13.269
X-0.96 Y42.388 Z13.321
X-1.033 Y42.367 Z13.386
X-1.095 Y42.349 Z13.462
X-1.145 Y42.334 Z13.547
X-1.181 Y42.324 Z13.639
X-1.204 Y42.317 Z13.736
X-1.211 Y42.315 Z13.835
G0 Z18.7
X-0.759 Y59.824
Z14.47
G1 Z13.835 F1219.2
X-0.757 Y59.817 Z13.736
X-0.749 Y59.795 Z13.639
X-0.737 Y59.759 Z13.547
X-0.721 Y59.709 Z13.462
X-0.7 Y59.648 Z13.386
X-0.676 Y59.576 Z13.321
X-0.649 Y59.495 Z13.269
X-0.62 Y59.408 Z13.231
X-0.589 Y59.316 Z13.208
X-0.558 Y59.222 Z13.2
G3 X-0.348 Y59.088 I0.188 J0.063
G1 X-0.278 Y59.098
X-0.055 Y59.114
X0.035 Y59.125
X0.181 Y59.158
X0.319 Y59.218
X0.448 Y59.294
X0.569 Y59.384
X0.681 Y59.482
X0.787 Y59.589
X0.886 Y59.702
X0.978 Y59.82
X1.065 Y59.942
X1.146 Y60.068
X1.226 Y60.204
X1.313 Y60.365
X1.395 Y60.533
X1.481 Y60.727
X1.571 Y60.954
X1.654 Y61.191
X1.745 Y61.488
X1.831 Y61.812
X1.912 Y62.178
X2.002 Y62.667
X2.073 Y63.169
X2.148 Y63.898
X2.209 Y64.871
X2.232 Y65.853
X2.241 Y66.834
X2.244 Y67.816
X2.246 Y69.779
Y99.224
X2.312 Y99.46
X2.415 Y99.683
X2.55 Y99.888
X2.715 Y100.069
X2.907 Y100.223
X3.119 Y100.345
X3.349 Y100.433
X3.588 Y100.485
X3.833 Y100.499
X4.078 Y100.476
X4.315 Y100.414
X5.217 Y100.026
X5.346 Y99.95
X5.48 Y99.883
X5.618 Y99.824
X5.759 Y99.772
X5.907 Y99.725
X6.098 Y99.671
X6.334 Y99.615
X6.59 Y99.565
X6.949 Y99.509
X7.417 Y99.454
X8.088 Y99.403
X9.068 Y99.366
X10.05 Y99.357
X11.031 Y99.355
X18.884 Y99.354
X25.787 Y99.355
X26.026 Y99.375
X26.259 Y99.432
X26.481 Y99.522
X27.429 Y99.996
X27.469 Y100.016
G3 X27.54 Y100.06 I-0.299 J0.56
G2 X27.627 Y100.112 I0.369 J-0.516
G1 X27.685 Y100.141
X29.787 Y101.182
G2 X30.686 Y100.465 I0.282 J-0.569
G3 X30.793 Y100.24 I0.193 J-0.046
G1 X30.949 Y100.172
X31.172 Y100.061
X31.35 Y99.949
X31.546 Y99.839
X31.683 Y99.778
X31.824 Y99.726
X31.967 Y99.68
X32.132 Y99.635
X32.347 Y99.586
X32.625 Y99.533
X32.927 Y99.488
X33.37 Y99.44
X34.065 Y99.392
X35.046 Y99.363
X36.027 Y99.356
X37.009 Y99.355
X68.98 Y99.354
X69.307 Y99.402
X69.618 Y99.516
X69.899 Y99.693
X70.126 Y99.87
X70.428 Y100.061
G3 X70.494 Y100.112 I-0.357 J0.525
G2 X70.632 Y100.206 I0.423 J-0.474
G1 X72.61 Y101.198
G2 X73.512 Y100.481 I0.285 J-0.568
G3 X73.618 Y100.255 I0.193 J-0.047
G1 X73.774 Y100.186
X73.997 Y100.081
X74.22 Y99.972
X74.443 Y99.861
X74.604 Y99.79
X74.744 Y99.735
X74.886 Y99.687
X75.03 Y99.646
X75.207 Y99.602
X75.44 Y99.555
X75.749 Y99.504
X76.118 Y99.458
X76.695 Y99.41
X77.675 Y99.366
X78.657 Y99.357
X79.638 Y99.355
X97.306 Y99.354
X98.778
X99.023 Y99.352
X99.266 Y99.317
X99.5 Y99.244
X99.721 Y99.136
X99.922 Y98.996
X100.099 Y98.826
X100.248 Y98.631
X100.365 Y98.415
X100.447 Y98.184
X100.493 Y97.943
X100.501 Y97.698
X100.471 Y97.454
X100.404 Y97.218
X99.993 Y96.326
X99.917 Y96.197
X99.852 Y96.062
X99.795 Y95.923
X99.745 Y95.781
X99.699 Y95.633
X99.649 Y95.446
X99.594 Y95.199
X99.541 Y94.915
X99.491 Y94.567
X99.437 Y94.054
X99.387 Y93.28
X99.362 Y92.299
X99.356 Y91.317
X99.355 Y90.336
X99.354 Y74.632
Y63.835
X99.358 Y62.876
X99.383 Y62.289
X99.419 Y61.849
X99.459 Y61.519
X99.504 Y61.239
X99.552 Y61.001
X99.603 Y60.794
X99.655 Y60.611
X99.702 Y60.468
X99.755 Y60.328
X99.813 Y60.19
X99.877 Y60.054
X99.948 Y59.922
X99.967 Y59.892
X100.154 Y59.646
X100.385 Y59.441
X100.651 Y59.284
X100.943 Y59.182
X101.25 Y59.138
X101.432 Y59.13
X101.637 Y59.115
G3 X101.881 Y59.155 I0.024 J0.635
G1 X101.975 Y59.189 Z13.208
X102.065 Y59.223 Z13.231
X102.152 Y59.255 Z13.269
X102.231 Y59.284 Z13.321
X102.303 Y59.311 Z13.386
X102.363 Y59.333 Z13.462
X102.412 Y59.351 Z13.547
X102.448 Y59.364 Z13.639
X102.47 Y59.372 Z13.736
X102.477 Y59.375 Z13.835
G0 Z18.7
X102.359 Y41.776
Z14.47
G1 Z13.835 F1219.2
X102.357 Y41.783 Z13.736
X102.349 Y41.805 Z13.639
X102.337 Y41.841 Z13.547
X102.321 Y41.891 Z13.462
X102.3 Y41.952 Z13.386
X102.276 Y42.024 Z13.321
X102.249 Y42.105 Z13.269
X102.22 Y42.192 Z13.231
X102.189 Y42.284 Z13.208
X102.158 Y42.378 Z13.2
G3 X101.948 Y42.512 I-0.188 J-0.063
G1 X101.878 Y42.502
X101.655 Y42.486
X101.565 Y42.475
X101.419 Y42.442
X101.281 Y42.382
X101.152 Y42.306
X101.032 Y42.216
X100.919 Y42.118
X100.813 Y42.011
X100.714 Y41.898
X100.622 Y41.78
X100.535 Y41.658
X100.454 Y41.532
X100.374 Y41.396
X100.287 Y41.235
X100.205 Y41.067
X100.119 Y40.872
X100.029 Y40.646
X99.946 Y40.409
X99.855 Y40.112
X99.769 Y39.788
X99.688 Y39.422
X99.598 Y38.933
X99.527 Y38.431
X99.452 Y37.702
X99.391 Y36.729
X99.368 Y35.747
X99.359 Y34.766
X99.356 Y33.784
X99.354 Y31.821
Y2.376
X99.287 Y2.14
X99.185 Y1.917
X99.05 Y1.712
X98.884 Y1.531
X98.693 Y1.377
X98.48 Y1.255
X98.251 Y1.167
X98.011 Y1.115
X97.766 Y1.101
X97.522 Y1.125
X97.284 Y1.186
X96.383 Y1.575
X96.254 Y1.652
X96.12 Y1.718
X95.981 Y1.777
X95.841 Y1.828
X95.692 Y1.876
X95.502 Y1.929
X95.263 Y1.986
X95.008 Y2.036
X94.648 Y2.092
X94.177 Y2.147
X93.502 Y2.198
X92.521 Y2.234
X91.54 Y2.243
X90.558 Y2.245
X82.706 Y2.246
X75.813 Y2.245
X75.574 Y2.225
X75.341 Y2.168
X75.119 Y2.078
X74.171 Y1.604
X74.131 Y1.584
G3 X74.06 Y1.54 I0.299 J-0.56
G2 X73.973 Y1.488 I-0.369 J0.516
G1 X73.915 Y1.459
X71.813 Y0.418
G2 X70.914 Y1.135 I-0.282 J0.569
G3 X70.918 Y1.154 I-0.193 J0.046
X70.807 Y1.36 I-0.197 J0.026
G1 X70.651 Y1.428
X70.428 Y1.539
X70.25 Y1.651
X70.054 Y1.761
X69.917 Y1.822
X69.776 Y1.874
X69.633 Y1.92
X69.468 Y1.965
X69.253 Y2.014
X68.975 Y2.067
X68.673 Y2.112
X68.23 Y2.16
X67.535 Y2.208
X66.554 Y2.237
X65.573 Y2.244
X64.591 Y2.245
X32.62 Y2.246
X32.292 Y2.198
X31.982 Y2.084
X31.701 Y1.907
X31.474 Y1.73
X31.172 Y1.539
G3 X31.106 Y1.488 I0.357 J-0.525
G2 X30.968 Y1.394 I-0.423 J0.474
G1 X28.99 Y0.402
G2 X28.088 Y1.119 I-0.285 J0.568
G3 X27.982 Y1.345 I-0.193 J0.047
G1 X27.826 Y1.414
X27.603 Y1.519
X27.38 Y1.628
X27.157 Y1.739
X26.996 Y1.81
X26.856 Y1.865
X26.714 Y1.913
X26.57 Y1.954
X26.393 Y1.998
X26.16 Y2.045
X25.851 Y2.096
X25.482 Y2.142
X24.905 Y2.19
X23.925 Y2.234
X22.943 Y2.243
X21.962 Y2.245
X4.294 Y2.246
X2.822
X2.577 Y2.248
X2.334 Y2.283
X2.099 Y2.355
X1.879 Y2.463
X1.678 Y2.603
X1.5 Y2.773
X1.351 Y2.967
X1.234 Y3.183
X1.151 Y3.414
X1.105 Y3.655
X1.097 Y3.9
X1.127 Y4.144
X1.193 Y4.38
X1.603 Y5.272
X1.679 Y5.401
X1.745 Y5.536
X1.802 Y5.674
X1.853 Y5.816
X1.898 Y5.962
X1.949 Y6.15
X2.006 Y6.4
X2.055 Y6.667
X2.107 Y7.018
X2.16 Y7.522
X2.211 Y8.28
X2.237 Y9.261
X2.244 Y10.243
X2.245 Y11.224
X2.246 Y26.928
Y37.725
X2.243 Y38.707
X2.219 Y39.294
X2.183 Y39.738
X2.142 Y40.073
X2.098 Y40.353
X2.05 Y40.592
X1.999 Y40.8
X1.947 Y40.983
X1.901 Y41.126
X1.847 Y41.268
X1.789 Y41.407
X1.725 Y41.542
X1.654 Y41.674
X1.635 Y41.705
X1.448 Y41.952
X1.217 Y42.158
X0.95 Y42.316
X0.657 Y42.418
X0.35 Y42.462
X0.168 Y42.47
X-0.037 Y42.485
G3 X-0.281 Y42.445 I-0.024 J-0.635
G1 X-0.375 Y42.411 Z13.208
X-0.465 Y42.377 Z13.231
X-0.552 Y42.345 Z13.269
X-0.631 Y42.316 Z13.321
X-0.702 Y42.289 Z13.386
X-0.763 Y42.267 Z13.462
X-0.812 Y42.249 Z13.547
X-0.848 Y42.236 Z13.639
X-0.87 Y42.228 Z13.736
X-0.877 Y42.225 Z13.835
G0 Z18.7
X-0.412 Y59.879
Z14.47
G1 Z13.835 F1219.2
X-0.41 Y59.871 Z13.736
X-0.404 Y59.848 Z13.639
X-0.395 Y59.812 Z13.547
X-0.382 Y59.761 Z13.462
X-0.366 Y59.698 Z13.386
X-0.347 Y59.625 Z13.321
X-0.326 Y59.543 Z13.269
X-0.303 Y59.453 Z13.231
X-0.279 Y59.36 Z13.208
X-0.255 Y59.263 Z13.2
G3 X-0.055 Y59.114 I0.192 J0.049
G1 X0.168 Y59.13
X0.291 Y59.136
X0.38 Y59.144
X0.527 Y59.174
X0.666 Y59.23
X0.798 Y59.303
X0.921 Y59.388
X1.037 Y59.483
X1.146 Y59.586
X1.249 Y59.695
X1.345 Y59.81
X1.436 Y59.929
X1.522 Y60.053
X1.609 Y60.19
X1.693 Y60.334
X1.784 Y60.505
X1.874 Y60.693
X1.963 Y60.898
X2.057 Y61.139
X2.147 Y61.401
X2.239 Y61.707
X2.332 Y62.069
X2.416 Y62.453
X2.502 Y62.945
X2.588 Y63.574
X2.655 Y64.265
X2.71 Y65.245
X2.732 Y66.226
X2.741 Y67.208
X2.744 Y68.189
X2.746 Y70.152
Y98.616
X2.748 Y98.861
X2.787 Y99.104
X2.864 Y99.337
X2.976 Y99.555
X3.119 Y99.754
X3.292 Y99.928
X3.49 Y100.074
X3.708 Y100.187
X3.94 Y100.265
X4.182 Y100.307
X4.427 Y100.311
X4.549 Y100.294
G3 X4.796 Y100.316 I0.066 J0.632
G1 X4.891 Y100.345 Z13.208
X4.984 Y100.372 Z13.231
X5.072 Y100.398 Z13.269
X5.153 Y100.423 Z13.321
X5.226 Y100.444 Z13.386
X5.288 Y100.463 Z13.462
X5.338 Y100.477 Z13.547
X5.374 Y100.488 Z13.639
X5.397 Y100.495 Z13.736
X5.404 Y100.497 Z13.835
G0 Z18.7
X-0.043 Y59.91
Z14.47
G1 Z13.835 F1219.2
X-0.042 Y59.903 Z13.736
X-0.037 Y59.88 Z13.639
X-0.028 Y59.843 Z13.547
X-0.017 Y59.792 Z13.462
X-0.003 Y59.729 Z13.386
X0.014 Y59.655 Z13.321
X0.032 Y59.572 Z13.269
X0.053 Y59.482 Z13.231
X0.074 Y59.388 Z13.208
X0.096 Y59.291 Z13.2
G3 X0.291 Y59.136 I0.194 J0.043
G1 X0.391 Y59.14
X0.652 Y59.145
X0.737 Y59.151
X0.884 Y59.18
X1.025 Y59.233
X1.158 Y59.303
X1.283 Y59.385
X1.402 Y59.477
X1.513 Y59.577
X1.619 Y59.683
X1.719 Y59.795
X1.813 Y59.912
X1.902 Y60.032
X1.994 Y60.168
X2.083 Y60.311
X2.175 Y60.473
X2.272 Y60.661
X2.364 Y60.857
X2.46 Y61.087
X2.56 Y61.351
X2.651 Y61.625
X2.747 Y61.957
X2.846 Y62.358
X2.933 Y62.782
X3.02 Y63.311
X3.105 Y63.988
X3.171 Y64.757
X3.216 Y65.737
X3.234 Y66.719
X3.241 Y67.7
X3.244 Y68.682
X3.246 Y70.645
Y98.618
X3.287 Y98.86
X3.364 Y99.093
X3.477 Y99.311
X3.621 Y99.509
X3.795 Y99.683
X3.993 Y99.827
X4.211 Y99.94
X4.444 Y100.017
X4.686 Y100.058
X4.931 Y100.061
X5.053 Y100.044
X5.172 Y100.017
X5.29 Y99.981
G3 X5.537 Y99.964 I0.165 J0.613
G1 X5.635 Y99.977 Z13.208
X5.731 Y99.99 Z13.231
X5.823 Y100.002 Z13.269
X5.907 Y100.013 Z13.321
X5.982 Y100.023 Z13.386
X6.046 Y100.031 Z13.462
X6.098 Y100.038 Z13.547
X6.136 Y100.043 Z13.639
X6.159 Y100.046 Z13.736
X6.166 Y100.047 Z13.835
G0 Z18.7
X0.337 Y59.928
Z14.47
G1 Z13.835 F1219.2
X0.338 Y59.92 Z13.736
X0.343 Y59.897 Z13.639
X0.35 Y59.86 Z13.547
X0.36 Y59.809 Z13.462
X0.373 Y59.745 Z13.386
X0.388 Y59.671 Z13.321
X0.404 Y59.588 Z13.269
X0.422 Y59.497 Z13.231
X0.441 Y59.402 Z13.208
X0.46 Y59.305 Z13.2
G3 X0.652 Y59.145 I0.195 J0.039
G1 X1.015 Y59.151
X1.106 Y59.158
X1.254 Y59.184
X1.395 Y59.235
X1.529 Y59.302
X1.657 Y59.381
X1.777 Y59.47
X1.891 Y59.568
X1.999 Y59.672
X2.102 Y59.781
X2.199 Y59.896
X2.291 Y60.014
X2.385 Y60.146
X2.479 Y60.29
X2.574 Y60.448
X2.673 Y60.628
X2.771 Y60.826
X2.868 Y61.042
X2.973 Y61.299
X3.073 Y61.579
X3.17 Y61.885
X3.271 Y62.257
X3.368 Y62.677
X3.459 Y63.156
X3.549 Y63.753
X3.628 Y64.478
X3.694 Y65.413
X3.725 Y66.394
X3.738 Y67.376
X3.743 Y68.357
X3.745 Y69.339
X3.746 Y73.265
Y98.294
X3.773 Y98.537
X3.838 Y98.774
X3.939 Y98.998
X4.073 Y99.204
X4.237 Y99.386
X4.427 Y99.541
X4.638 Y99.665
X4.867 Y99.755
X5.106 Y99.809
X5.351 Y99.825
X5.595 Y99.803
X5.834 Y99.744
X6.738 Y99.363
X6.874 Y99.299
X7.014 Y99.245
X7.156 Y99.198
X7.302 Y99.156
X7.487 Y99.11
X7.732 Y99.06
X8.051 Y99.008
X8.43 Y98.961
X9.021 Y98.911
X10.002 Y98.867
X10.983 Y98.857
X11.964 Y98.855
X12.946 Y98.854
X24.724
X24.793 Y98.855
X25.039 Y98.876
X25.279 Y98.935
X25.507 Y99.031
X25.839 Y99.201
X26.481 Y99.522
G3 X26.671 Y99.681 I-0.304 J0.558
G1 X26.733 Y99.758 Z13.208
X26.794 Y99.834 Z13.231
X26.852 Y99.905 Z13.269
X26.905 Y99.971 Z13.321
X26.953 Y100.03 Z13.386
X26.994 Y100.081 Z13.462
X27.026 Y100.121 Z13.547
X27.05 Y100.151 Z13.639
X27.065 Y100.169 Z13.736
X27.07 Y100.175 Z13.835
G0 Z18.7
X31.516 Y100.776
Z14.47
G1 Z13.835 F1219.2
X31.513 Y100.768 Z13.736
X31.505 Y100.747 Z13.639
X31.49 Y100.712 Z13.547
X31.471 Y100.663 Z13.462
X31.446 Y100.603 Z13.386
X31.418 Y100.533 Z13.321
X31.386 Y100.454 Z13.269
X31.351 Y100.369 Z13.231
X31.315 Y100.279 Z13.208
X31.278 Y100.187 Z13.2
G3 X31.35 Y99.949 I0.184 J-0.075
G1 X31.474 Y99.87
X31.618 Y99.758
X31.759 Y99.647
X31.784 Y99.626
X31.88 Y99.55
X32.006 Y99.467
X32.138 Y99.396
X32.274 Y99.334
X32.414 Y99.28
X32.556 Y99.232
X32.725 Y99.182
X32.945 Y99.127
X33.186 Y99.076
X33.489 Y99.025
X33.927 Y98.968
X34.471 Y98.919
X35.451 Y98.87
X36.432 Y98.858
X37.414 Y98.855
X41.34 Y98.854
X67.841
X68.186 Y98.855
X68.46 Y98.867
X68.519 Y98.871
X68.817 Y98.924
X69.1 Y99.033
X69.357 Y99.194
X69.579 Y99.4
X69.6 Y99.424
X69.759 Y99.576
X69.841 Y99.647
X69.899 Y99.693
G3 X70.053 Y99.887 I-0.41 J0.485
G1 X70.099 Y99.975 Z13.208
X70.143 Y100.061 Z13.231
X70.186 Y100.143 Z13.269
X70.225 Y100.218 Z13.321
X70.259 Y100.286 Z13.386
X70.289 Y100.343 Z13.462
X70.313 Y100.389 Z13.547
X70.33 Y100.423 Z13.639
X70.341 Y100.444 Z13.736
X70.345 Y100.451 Z13.835
G0 Z18.7
X32.076 Y100.417
Z14.47
G1 Z13.835 F1219.2
X32.072 Y100.41 Z13.736
X32.06 Y100.391 Z13.639
X32.04 Y100.358 Z13.547
X32.014 Y100.313 Z13.462
X31.98 Y100.258 Z13.386
X31.941 Y100.193 Z13.321
X31.898 Y100.12 Z13.269
X31.85 Y100.041 Z13.231
X31.8 Y99.958 Z13.208
X31.749 Y99.873 Z13.2
G3 X31.784 Y99.626 I0.17 J-0.102
G1 X31.841 Y99.576
X32 Y99.424
X32.086 Y99.327
X32.169 Y99.243
X32.282 Y99.144
X32.406 Y99.059
X32.535 Y98.983
X32.67 Y98.917
X32.808 Y98.858
X32.96 Y98.802
X33.116 Y98.75
X33.318 Y98.693
X33.547 Y98.637
X33.82 Y98.581
X34.21 Y98.518
X34.644 Y98.464
X35.284 Y98.411
X36.264 Y98.368
X37.246 Y98.358
X38.227 Y98.355
X43.135 Y98.354
X67.572
X67.87 Y98.366
X68.054 Y98.381
X68.203 Y98.398
X68.243 Y98.405
X68.542 Y98.483
X68.82 Y98.617
X69.067 Y98.803
X69.273 Y99.034
X69.313 Y99.088
X69.402 Y99.201
X69.579 Y99.4
G3 X69.696 Y99.618 I-0.49 J0.404
G1 X69.725 Y99.713 Z13.208
X69.754 Y99.806 Z13.231
X69.781 Y99.894 Z13.269
X69.806 Y99.975 Z13.321
X69.828 Y100.048 Z13.386
X69.847 Y100.11 Z13.462
X69.862 Y100.159 Z13.547
X69.873 Y100.196 Z13.639
X69.88 Y100.218 Z13.736
X69.883 Y100.225 Z13.835
G0 Z18.7
X32.477 Y100.075
Z14.47
G1 Z13.835 F1219.2
X32.472 Y100.069 Z13.736
X32.458 Y100.051 Z13.639
X32.434 Y100.021 Z13.547
X32.402 Y99.98 Z13.462
X32.362 Y99.929 Z13.386
X32.315 Y99.869 Z13.321
X32.262 Y99.803 Z13.269
X32.205 Y99.731 Z13.231
X32.145 Y99.654 Z13.208
X32.083 Y99.576 Z13.2
G3 X32.086 Y99.327 I0.156 J-0.123
G1 X32.198 Y99.201
X32.287 Y99.088
X32.368 Y98.978
X32.425 Y98.902
X32.53 Y98.794
X32.646 Y98.7
X32.771 Y98.617
X32.901 Y98.542
X33.035 Y98.475
X33.172 Y98.414
X33.321 Y98.356
X33.493 Y98.297
X33.694 Y98.236
X33.922 Y98.176
X34.222 Y98.11
X34.538 Y98.054
X35.011 Y97.988
X35.558 Y97.934
X36.454 Y97.881
X37.435 Y97.862
X38.417 Y97.856
X39.398 Y97.855
X66.881 Y97.854
X67.292 Y97.864
X67.506 Y97.877
X67.731 Y97.9
X67.88 Y97.921
X68.033 Y97.949
X68.334 Y98.051
X68.608 Y98.211
X68.845 Y98.422
X69.035 Y98.676
X69.09 Y98.768
X69.232 Y98.978
X69.273 Y99.034
G3 X69.37 Y99.262 I-0.525 J0.357
G1 X69.39 Y99.359 Z13.208
X69.41 Y99.454 Z13.231
X69.428 Y99.544 Z13.269
X69.446 Y99.627 Z13.321
X69.461 Y99.701 Z13.386
X69.474 Y99.765 Z13.462
X69.485 Y99.816 Z13.547
X69.493 Y99.853 Z13.639
X69.497 Y99.876 Z13.736
X69.499 Y99.883 Z13.835
G0 Z18.7
X32.853 Y99.669
Z14.47
G1 Z13.835 F1219.2
X32.847 Y99.663 Z13.736
X32.83 Y99.647 Z13.639
X32.803 Y99.62 Z13.547
X32.766 Y99.584 Z13.462
X32.719 Y99.539 Z13.386
X32.665 Y99.486 Z13.321
X32.604 Y99.427 Z13.269
X32.538 Y99.363 Z13.231
X32.469 Y99.295 Z13.208
X32.398 Y99.226 Z13.2
G3 X32.368 Y98.978 I0.138 J-0.142
G1 X32.51 Y98.768
X32.574 Y98.662
X32.635 Y98.571
X32.729 Y98.454
X32.837 Y98.351
X32.955 Y98.258
X33.08 Y98.175
X33.21 Y98.099
X33.343 Y98.031
X33.48 Y97.969
X33.632 Y97.907
X33.804 Y97.845
X34.015 Y97.777
X34.245 Y97.714
X34.535 Y97.646
X34.854 Y97.584
X35.322 Y97.513
X35.804 Y97.458
X36.583 Y97.401
X37.564 Y97.368
X38.545 Y97.358
X39.527 Y97.355
X42.471 Y97.354
X66.028
X66.684 Y97.359
X67.049 Y97.376
X67.256 Y97.393
X67.446 Y97.417
X67.623 Y97.446
X67.77 Y97.476
X67.786 Y97.48
X68.074 Y97.586
X68.336 Y97.745
X68.563 Y97.951
X68.747 Y98.198
X69.035 Y98.676
G3 X69.111 Y98.912 I-0.555 J0.309
G1 X69.122 Y99.011 Z13.208
X69.133 Y99.107 Z13.231
X69.144 Y99.199 Z13.269
X69.154 Y99.283 Z13.321
X69.162 Y99.358 Z13.386
X69.17 Y99.423 Z13.462
X69.176 Y99.474 Z13.547
X69.18 Y99.512 Z13.639
X69.183 Y99.535 Z13.736
Y99.543 Z13.835
G0 Z18.7
X33.094 Y99.326
Z14.47
G1 Z13.835 F1219.2
X33.088 Y99.321 Z13.736
X33.071 Y99.306 Z13.639
X33.042 Y99.28 Z13.547
X33.003 Y99.246 Z13.462
X32.954 Y99.203 Z13.386
X32.897 Y99.153 Z13.321
X32.833 Y99.097 Z13.269
X32.764 Y99.037 Z13.231
X32.691 Y98.973 Z13.208
X32.617 Y98.907 Z13.2
G3 X32.574 Y98.662 I0.131 J-0.149
G1 X32.827 Y98.242
X32.889 Y98.149
X32.984 Y98.032
X33.091 Y97.927
X33.208 Y97.833
X33.331 Y97.747
X33.459 Y97.67
X33.591 Y97.599
X33.726 Y97.534
X33.883 Y97.466
X34.047 Y97.403
X34.261 Y97.33
X34.481 Y97.264
X34.76 Y97.192
X35.06 Y97.128
X35.482 Y97.055
X35.928 Y96.995
X36.603 Y96.931
X37.583 Y96.878
X38.564 Y96.862
X39.546 Y96.856
X40.527 Y96.855
X53.287 Y96.854
X65.065
X66.047 Y96.856
X66.51 Y96.869
X66.845 Y96.892
X67.037 Y96.913
X67.225 Y96.941
X67.39 Y96.972
X67.45 Y96.986
X67.751 Y97.087
X68.027 Y97.247
X68.265 Y97.459
X68.455 Y97.714
X68.747 Y98.198
G3 X68.822 Y98.434 I-0.555 J0.309
G1 X68.834 Y98.532 Z13.208
X68.845 Y98.629 Z13.231
X68.855 Y98.72 Z13.269
X68.865 Y98.804 Z13.321
X68.874 Y98.88 Z13.386
X68.881 Y98.944 Z13.462
X68.887 Y98.996 Z13.547
X68.891 Y99.034 Z13.639
X68.894 Y99.057 Z13.736
X68.895 Y99.064 Z13.835
G0 Z18.7
X33.347 Y98.906
Z14.47
G1 Z13.835 F1219.2
X33.341 Y98.901 Z13.736
X33.324 Y98.885 Z13.639
X33.295 Y98.86 Z13.547
X33.256 Y98.826 Z13.462
X33.207 Y98.783 Z13.386
X33.15 Y98.733 Z13.321
X33.087 Y98.677 Z13.269
X33.017 Y98.617 Z13.231
X32.944 Y98.553 Z13.208
X32.87 Y98.487 Z13.2
G3 X32.827 Y98.242 I0.131 J-0.149
G1 X33.093 Y97.801
X33.156 Y97.706
X33.25 Y97.589
X33.357 Y97.484
X33.473 Y97.389
X33.595 Y97.302
X33.722 Y97.222
X33.853 Y97.149
X33.988 Y97.083
X34.139 Y97.015
X34.309 Y96.946
X34.511 Y96.874
X34.737 Y96.803
X34.995 Y96.733
X35.311 Y96.66
X35.683 Y96.59
X36.161 Y96.519
X36.758 Y96.455
X37.597 Y96.397
X38.578 Y96.367
X39.56 Y96.358
X40.541 Y96.356
X43.486 Y96.354
X65.079 Y96.355
X65.889 Y96.36
X66.307 Y96.38
X66.597 Y96.404
X66.791 Y96.429
X66.998 Y96.463
X67.145 Y96.493
X67.191 Y96.505
X67.482 Y96.609
X67.747 Y96.769
X67.976 Y96.976
X68.161 Y97.225
X68.455 Y97.714
G3 X68.531 Y97.95 I-0.555 J0.308
G1 X68.542 Y98.049 Z13.208
X68.553 Y98.145 Z13.231
X68.564 Y98.236 Z13.269
X68.574 Y98.321 Z13.321
X68.582 Y98.396 Z13.386
X68.59 Y98.46 Z13.462
X68.596 Y98.512 Z13.547
X68.6 Y98.55 Z13.639
X68.603 Y98.573 Z13.736
Y98.581 Z13.835
G0 Z18.7
X33.613 Y98.465
Z14.47
G1 Z13.835 F1219.2
X33.607 Y98.459 Z13.736
X33.59 Y98.444 Z13.639
X33.561 Y98.419 Z13.547
X33.522 Y98.385 Z13.462
X33.473 Y98.342 Z13.386
X33.416 Y98.292 Z13.321
X33.352 Y98.236 Z13.269
X33.283 Y98.176 Z13.231
X33.21 Y98.112 Z13.208
X33.135 Y98.046 Z13.2
G3 X33.093 Y97.801 I0.131 J-0.149
G1 X33.367 Y97.345
X33.431 Y97.249
X33.525 Y97.132
X33.632 Y97.027
X33.747 Y96.931
X33.869 Y96.843
X33.995 Y96.762
X34.126 Y96.689
X34.259 Y96.621
X34.41 Y96.551
X34.584 Y96.479
X34.776 Y96.409
X35.01 Y96.333
X35.265 Y96.261
X35.595 Y96.182
X35.939 Y96.114
X36.44 Y96.035
X36.952 Y95.974
X37.752 Y95.911
X38.733 Y95.873
X39.715 Y95.86
X40.696 Y95.856
X42.659 Y95.854
X64.252
X65.234 Y95.857
X65.779 Y95.871
X66.152 Y95.896
X66.39 Y95.921
X66.581 Y95.948
X66.768 Y95.983
X66.915 Y96.016
X66.929 Y96.02
X67.209 Y96.128
X67.464 Y96.286
X67.685 Y96.49
X67.863 Y96.731
X68.161 Y97.225
G3 X68.236 Y97.46 I-0.555 J0.308
G1 X68.248 Y97.559 Z13.208
X68.259 Y97.655 Z13.231
X68.269 Y97.747 Z13.269
X68.279 Y97.831 Z13.321
X68.288 Y97.907 Z13.386
X68.295 Y97.971 Z13.462
X68.301 Y98.023 Z13.547
X68.305 Y98.06 Z13.639
X68.308 Y98.084 Z13.736
X68.309 Y98.091 Z13.835
G0 Z18.7
X33.887 Y98.009
Z14.47
G1 Z13.835 F1219.2
X33.881 Y98.004 Z13.736
X33.864 Y97.989 Z13.639
X33.835 Y97.963 Z13.547
X33.796 Y97.929 Z13.462
X33.747 Y97.886 Z13.386
X33.69 Y97.837 Z13.321
X33.627 Y97.781 Z13.269
X33.557 Y97.72 Z13.231
X33.484 Y97.656 Z13.208
X33.41 Y97.591 Z13.2
G3 X33.367 Y97.345 I0.131 J-0.149
G1 X33.642 Y96.888
X33.708 Y96.789
X33.801 Y96.672
X33.907 Y96.565
X34.022 Y96.468
X34.143 Y96.38
X34.268 Y96.298
X34.398 Y96.223
X34.532 Y96.154
X34.683 Y96.083
X34.858 Y96.009
X35.046 Y95.937
X35.281 Y95.859
X35.538 Y95.784
X35.859 Y95.705
X36.193 Y95.635
X36.666 Y95.556
X37.181 Y95.491
X37.932 Y95.426
X38.913 Y95.379
X39.894 Y95.363
X40.876 Y95.357
X41.857 Y95.355
X46.765 Y95.354
X63.451
X64.432 Y95.355
X65.236 Y95.364
X65.675 Y95.385
X66.006 Y95.415
X66.196 Y95.439
X66.39 Y95.472
X66.482 Y95.491
X66.754 Y95.574
X67.007 Y95.704
X67.233 Y95.878
X67.424 Y96.088
X67.585 Y96.302
X67.739 Y96.525
X67.863 Y96.731
G3 X67.939 Y96.967 I-0.555 J0.308
G1 X67.95 Y97.066 Z13.208
X67.962 Y97.162 Z13.231
X67.972 Y97.253 Z13.269
X67.982 Y97.338 Z13.321
X67.99 Y97.413 Z13.386
X67.998 Y97.477 Z13.462
X68.004 Y97.529 Z13.547
X68.008 Y97.567 Z13.639
X68.011 Y97.59 Z13.736
X68.012 Y97.598 Z13.835
G0 Z18.7
X34.163 Y97.552
Z14.47
G1 Z13.835 F1219.2
X34.157 Y97.547 Z13.736
X34.139 Y97.531 Z13.639
X34.111 Y97.506 Z13.547
X34.071 Y97.472 Z13.462
X34.023 Y97.429 Z13.386
X33.966 Y97.379 Z13.321
X33.902 Y97.323 Z13.269
X33.833 Y97.263 Z13.231
X33.76 Y97.199 Z13.208
X33.685 Y97.133 Z13.2
G3 X33.642 Y96.888 I0.131 J-0.149
G1 X33.861 Y96.525
X33.984 Y96.347
X34.061 Y96.246
X34.161 Y96.134
X34.271 Y96.033
X34.389 Y95.94
X34.512 Y95.855
X34.64 Y95.776
X34.771 Y95.704
X34.918 Y95.631
X35.078 Y95.559
X35.261 Y95.486
X35.474 Y95.41
X35.718 Y95.333
X36.013 Y95.253
X36.327 Y95.181
X36.764 Y95.098
X37.212 Y95.032
X37.887 Y94.959
X38.763 Y94.898
X39.744 Y94.869
X40.725 Y94.859
X41.707 Y94.856
X43.67 Y94.854
X63.3
X64.281 Y94.856
X64.998 Y94.868
X65.424 Y94.891
X65.684 Y94.916
X65.92 Y94.948
X66.076 Y94.975
X66.096 Y94.98
X66.357 Y95.06
X66.6 Y95.183
X66.818 Y95.347
X67.005 Y95.545
X67.082 Y95.642
X67.248 Y95.856
X67.424 Y96.088
G3 X67.524 Y96.315 I-0.52 J0.365
G1 X67.545 Y96.412 Z13.208
X67.566 Y96.506 Z13.231
X67.587 Y96.596 Z13.269
X67.605 Y96.679 Z13.321
X67.621 Y96.753 Z13.386
X67.636 Y96.816 Z13.462
X67.647 Y96.867 Z13.547
X67.655 Y96.904 Z13.639
X67.66 Y96.927 Z13.736
X67.662 Y96.935 Z13.835
G0 Z18.7
X34.604 Y96.891
Z14.47
G1 Z13.835 F1219.2
X34.597 Y96.887 Z13.736
X34.577 Y96.876 Z13.639
X34.543 Y96.858 Z13.547
X34.498 Y96.833 Z13.462
X34.441 Y96.802 Z13.386
X34.374 Y96.766 Z13.321
X34.299 Y96.726 Z13.269
X34.218 Y96.682 Z13.231
X34.133 Y96.636 Z13.208
X34.046 Y96.588 Z13.2
G3 X33.984 Y96.347 I0.081 J-0.15
G1 X34.015 Y96.302
X34.352 Y95.856
X34.421 Y95.766
X34.507 Y95.667
X34.612 Y95.56
X34.727 Y95.464
X34.848 Y95.375
X34.975 Y95.295
X35.105 Y95.22
X35.239 Y95.152
X35.393 Y95.081
X35.564 Y95.009
X35.772 Y94.932
X36.001 Y94.857
X36.265 Y94.782
X36.587 Y94.704
X36.965 Y94.628
X37.455 Y94.549
X38.01 Y94.482
X38.813 Y94.417
X39.793 Y94.376
X40.775 Y94.362
X41.756 Y94.357
X42.738 Y94.355
X47.645 Y94.354
X63.35 Y94.355
X64.331 Y94.36
X64.873 Y94.378
X65.21 Y94.402
X65.424 Y94.426
X65.62 Y94.456
X65.657 Y94.463
X65.928 Y94.54
X66.18 Y94.664
X66.407 Y94.831
X66.601 Y95.035
X67.005 Y95.545
G3 X67.111 Y95.769 I-0.511 J0.377
G1 X67.134 Y95.866 Z13.208
X67.158 Y95.96 Z13.231
X67.18 Y96.049 Z13.269
X67.2 Y96.132 Z13.321
X67.219 Y96.205 Z13.386
X67.234 Y96.268 Z13.462
X67.247 Y96.318 Z13.547
X67.256 Y96.355 Z13.639
X67.261 Y96.378 Z13.736
X67.263 Y96.386 Z13.835
G0 Z18.7
X35.025 Y95.431
Z14.47
G1 Z13.835 F1219.2
X35.02 Y95.437 Z13.736
X35.005 Y95.455 Z13.639
X34.98 Y95.485 Z13.547
X34.947 Y95.525 Z13.462
X34.906 Y95.574 Z13.386
X34.857 Y95.632 Z13.321
X34.803 Y95.698 Z13.269
X34.744 Y95.768 Z13.231
X34.682 Y95.843 Z13.208
X34.618 Y95.919 Z13.2
G3 X34.421 Y95.766 I-0.096 J-0.08
G1 X34.525 Y95.632
X34.851 Y95.222
X34.934 Y95.127
X35.042 Y95.022
X35.158 Y94.928
X35.281 Y94.842
X35.409 Y94.763
X35.54 Y94.691
X35.679 Y94.622
X35.836 Y94.552
X36.018 Y94.48
X36.225 Y94.406
X36.473 Y94.329
X36.758 Y94.252
X37.087 Y94.177
X37.507 Y94.099
X37.989 Y94.028
X38.672 Y93.956
X39.565 Y93.896
X40.546 Y93.869
X41.528 Y93.859
X42.509 Y93.856
X44.472 Y93.854
X63.121 Y93.855
X64.102 Y93.859
X64.595 Y93.879
X64.856 Y93.9
X65.094 Y93.929
X65.246 Y93.954
X65.267 Y93.958
X65.534 Y94.036
X65.783 Y94.16
X66.007 Y94.326
X66.198 Y94.528
X66.601 Y95.035
G3 X66.706 Y95.26 I-0.511 J0.377
G1 X66.73 Y95.356 Z13.208
X66.753 Y95.45 Z13.231
X66.776 Y95.539 Z13.269
X66.796 Y95.622 Z13.321
X66.814 Y95.695 Z13.386
X66.83 Y95.758 Z13.462
X66.842 Y95.809 Z13.547
X66.852 Y95.846 Z13.639
X66.857 Y95.868 Z13.736
X66.859 Y95.876 Z13.835
G0 Z18.7
X35.282 Y95.947
Z14.47
G1 Z13.835 F1219.2
X35.277 Y95.941 Z13.736
X35.262 Y95.924 Z13.639
X35.236 Y95.895 Z13.547
X35.202 Y95.856 Z13.462
X35.159 Y95.808 Z13.386
X35.109 Y95.751 Z13.321
X35.053 Y95.687 Z13.269
X34.992 Y95.618 Z13.231
X34.928 Y95.545 Z13.208
X34.862 Y95.471 Z13.2
G3 X34.851 Y95.222 I0.149 J-0.131
G1 X35.233 Y94.74
X35.323 Y94.638
X35.428 Y94.531
X35.543 Y94.435
X35.665 Y94.348
X35.792 Y94.268
X35.923 Y94.194
X36.059 Y94.126
X36.208 Y94.059
X36.386 Y93.986
X36.586 Y93.914
X36.827 Y93.837
X37.091 Y93.765
X37.432 Y93.685
X37.811 Y93.612
X38.343 Y93.531
X38.901 Y93.468
X39.769 Y93.405
X40.749 Y93.373
X41.731 Y93.361
X42.712 Y93.357
X44.675 Y93.355
X62.343 Y93.354
X63.324 Y93.356
X63.971 Y93.367
X64.348 Y93.388
X64.561 Y93.409
X64.686 Y93.426
X65.013 Y93.506
X65.316 Y93.653
X65.58 Y93.861
X65.796 Y94.071
X65.967 Y94.239
X66.013 Y94.294
X66.198 Y94.528
G3 X65.692 Y95.54 I-0.511 J0.377
G1 X35.749 Y95.752
G3 X35.233 Y94.74 I-0.005 J-0.635
G1 X35.587 Y94.294
X35.633 Y94.239
X35.804 Y94.071
X35.916 Y93.972
X36.034 Y93.879
X36.158 Y93.795
X36.287 Y93.719
X36.42 Y93.649
X36.558 Y93.583
X36.722 Y93.513
X36.904 Y93.443
X37.122 Y93.369
X37.378 Y93.294
X37.681 Y93.217
X38.017 Y93.146
X38.471 Y93.068
X38.984 Y93.001
X39.72 Y92.933
X40.7 Y92.882
X41.682 Y92.865
X42.663 Y92.858
X43.645 Y92.856
X46.589 Y92.854
X62.293 Y92.855
X63.275 Y92.859
X63.737 Y92.874
X63.982 Y92.891
X64.121 Y92.907
X64.378 Y92.957
X64.623 Y93.049
X64.85 Y93.18
X65.052 Y93.347
X65.58 Y93.861
G3 X65.126 Y94.935 I-0.458 J0.439
G1 X36.269 Y95.143
G3 X35.671 Y94.281 I-0.005 J-0.635
X35.804 Y94.071 I0.593 J0.228
G1 X36.359 Y93.531
X36.529 Y93.381
X36.65 Y93.292
X36.777 Y93.212
X36.908 Y93.14
X37.043 Y93.074
X37.181 Y93.012
X37.355 Y92.944
X37.55 Y92.875
X37.781 Y92.804
X38.047 Y92.734
X38.372 Y92.661
X38.77 Y92.588
X39.266 Y92.517
X39.909 Y92.451
X40.853 Y92.391
X41.834 Y92.368
X42.816 Y92.359
X43.797 Y92.356
X45.76 Y92.355
X61.465 Y92.354
X62.446 Y92.356
X63.103 Y92.364
X63.404 Y92.38
X63.606 Y92.398
X63.627 Y92.401
X63.956 Y92.481
X64.261 Y92.628
X64.528 Y92.837
X65.052 Y93.347
G3 X64.598 Y94.421 I-0.458 J0.439
G1 X36.822 Y94.605
G3 X36.359 Y93.531 I-0.004 J-0.635
G1 X36.909 Y92.996
X37.021 Y92.897
X37.138 Y92.804
X37.262 Y92.72
X37.392 Y92.644
X37.525 Y92.576
X37.662 Y92.514
X37.823 Y92.448
X37.998 Y92.384
X38.224 Y92.312
X38.458 Y92.247
X38.781 Y92.171
X39.112 Y92.107
X39.609 Y92.03
X40.144 Y91.969
X40.968 Y91.908
X41.948 Y91.873
X42.93 Y91.861
X43.911 Y91.857
X44.893 Y91.855
X50.782 Y91.854
X61.579 Y91.855
X62.554 Y91.859
X62.817 Y91.871
X62.978 Y91.884
X63.285 Y91.941
X63.576 Y92.057
X63.839 Y92.227
X63.913 Y92.287
X64.406 Y92.718
X64.528 Y92.837
G3 X64.073 Y93.912 I-0.458 J0.439
G1 X37.371 Y94.07
G3 X36.909 Y92.996 I-0.004 J-0.635
G1 X37.194 Y92.718
X37.575 Y92.385
X37.69 Y92.294
X37.813 Y92.208
X37.942 Y92.131
X38.075 Y92.061
X38.211 Y91.999
X38.354 Y91.94
X38.538 Y91.872
X38.734 Y91.809
X38.982 Y91.739
X39.254 Y91.674
X39.606 Y91.605
X40.038 Y91.537
X40.591 Y91.472
X41.36 Y91.412
X42.341 Y91.375
X43.323 Y91.362
X44.304 Y91.357
X45.286 Y91.355
X50.193 Y91.354
X60.99 Y91.355
X61.971 Y91.357
X62.27 Y91.369
X62.291 Y91.371
X62.585 Y91.422
X62.864 Y91.527
X63.119 Y91.683
X63.737 Y92.146
X63.839 Y92.227
G3 X63.428 Y93.344 I-0.414 J0.481
G1 X38.013 Y93.483
G3 X37.431 Y92.586 I-0.003 J-0.635
X37.575 Y92.385 I0.579 J0.262
G1 X37.687 Y92.287
X37.863 Y92.146
X38.377 Y91.761
X38.569 Y91.632
X38.699 Y91.558
X38.834 Y91.491
X38.971 Y91.432
X39.125 Y91.373
X39.298 Y91.314
X39.524 Y91.247
X39.756 Y91.188
X40.072 Y91.121
X40.443 Y91.057
X40.92 Y90.994
X41.575 Y90.933
X42.555 Y90.881
X43.537 Y90.864
X44.518 Y90.858
X45.5 Y90.856
X49.426 Y90.854
X60.222
X61.204 Y90.856
X61.506 Y90.861
X61.591 Y90.866
X61.874 Y90.908
X62.145 Y91.001
X62.394 Y91.14
X63.119 Y91.683
G3 X62.723 Y92.812 I-0.398 J0.495
G1 X38.777 Y92.89
G3 X38.377 Y91.761 I-0.002 J-0.635
G1 X39.126 Y91.2
X39.248 Y91.117
X39.377 Y91.042
X39.511 Y90.974
X39.649 Y90.914
X39.795 Y90.858
X39.97 Y90.798
X40.16 Y90.741
X40.414 Y90.677
X40.692 Y90.617
X41.054 Y90.554
X41.547 Y90.489
X42.148 Y90.432
X43.128 Y90.379
X44.109 Y90.363
X45.091 Y90.357
X46.072 Y90.355
X49.998 Y90.354
X59.814
X60.698 Y90.355
X60.786 Y90.359
X61.06 Y90.394
X61.325 Y90.476
X61.571 Y90.603
X61.763 Y90.725
X62.175 Y90.991
X62.394 Y91.14
G3 X62.019 Y92.287 I-0.376 J0.512
G1 X39.525 Y92.329
G3 X38.967 Y91.39 I-0.001 J-0.635
X39.126 Y91.2 I0.557 J0.305
G1 X39.202 Y91.143
X39.425 Y90.991
X39.871 Y90.703
X40.049 Y90.591
X40.252 Y90.477
X40.388 Y90.413
X40.527 Y90.356
X40.674 Y90.303
X40.844 Y90.249
X41.067 Y90.188
X41.3 Y90.133
X41.609 Y90.074
X42.042 Y90.009
X42.513 Y89.956
X43.282 Y89.901
X44.263 Y89.869
X45.244 Y89.859
X46.226 Y89.856
X48.189 Y89.854
X59.837 Y89.855
X60.108 Y89.878
X60.37 Y89.947
X60.618 Y90.06
X61.506 Y90.562
X61.571 Y90.603
G3 X61.212 Y91.763 I-0.358 J0.524
G1 X40.406 Y91.75
G3 X40.049 Y90.591 J-0.635
G1 X40.094 Y90.562
X41.11 Y89.988
X41.321 Y89.884
X41.459 Y89.826
X41.6 Y89.775
X41.75 Y89.727
X41.942 Y89.675
X42.198 Y89.615
X42.461 Y89.564
X42.825 Y89.509
X43.327 Y89.453
X44.063 Y89.399
X45.044 Y89.367
X46.025 Y89.358
X47.007 Y89.355
X49.951 Y89.354
X58.785
X58.915 Y89.355
X59.133 Y89.372
X59.347 Y89.419
X59.552 Y89.495
X59.809 Y89.61
X59.945 Y89.68
X60.618 Y90.06
G3 X60.284 Y91.237 I-0.332 J0.542
G1 X41.439 Y91.165
G3 X41.11 Y89.988 I0.002 J-0.635
G1 X41.655 Y89.68
X41.791 Y89.61
X42.324 Y89.371
X42.683 Y89.242
X42.843 Y89.193
X43.048 Y89.139
X43.259 Y89.093
X43.541 Y89.041
X43.941 Y88.985
X44.425 Y88.936
X45.256 Y88.885
X46.237 Y88.862
X47.219 Y88.857
X48.2 Y88.855
X57.7 Y88.854
X57.903 Y88.867
X58.103 Y88.907
X58.297 Y88.971
X59.053 Y89.278
X59.276 Y89.371
X59.552 Y89.495
G3 X59.267 Y90.7 I-0.28 J0.57
G1 X42.6 Y90.575
G3 X42.324 Y89.371 I0.005 J-0.635
G1 X42.547 Y89.278
X43.785 Y88.775
X43.873 Y88.745
X44.016 Y88.697
X44.184 Y88.649
X44.372 Y88.603
X44.594 Y88.558
X44.897 Y88.509
X45.305 Y88.459
X45.899 Y88.41
X46.879 Y88.367
X47.861 Y88.358
X48.842 Y88.355
X53.75 Y88.354
X56.311
X56.447 Y88.36
X56.581 Y88.378
X56.714 Y88.407
X56.822 Y88.435
X57.022 Y88.495
X57.714 Y88.735
X58.297 Y88.971
G3 X58.029 Y90.186 I-0.259 J0.58
G1 X44.035 Y89.99
G3 X43.785 Y88.775 I0.009 J-0.635
G1 X43.886 Y88.735
X44.578 Y88.495
X44.778 Y88.435
X45.893 Y88.141
X46.33 Y88.05
X46.591 Y88.006
X46.946 Y87.961
X47.474 Y87.914
X48.454 Y87.867
X49.435 Y87.857
X50.417 Y87.855
X54.366 Y87.854
X54.483 Y87.859
X54.6 Y87.872
X54.715 Y87.893
G3 X54.572 Y89.142 I-0.161 J0.614
G1 X46.094 Y89.384
G3 X45.674 Y88.258 I-0.018 J-0.635
X45.893 Y88.141 I0.402 J0.492
G1 X46.116 Y88.083
X46.339 Y88.026
X46.785 Y87.916
X47.008 Y87.865
X49.239 Y87.577
X49.462 Y87.567
X49.908 Y87.55
X50.131 Y87.545
X51.469
X51.692 Y87.55
X52.138 Y87.567
X52.361 Y87.577
X54.592 Y87.865
X54.815 Y87.916
X55.351 Y88.049
X55.484 Y88.083
X56.714 Y88.407
G3 X56.933 Y88.523 I-0.183 J0.608
G1 X57.01 Y88.586 Z13.208
X57.085 Y88.647 Z13.231
X57.157 Y88.705 Z13.269
X57.222 Y88.759 Z13.321
X57.281 Y88.807 Z13.386
X57.331 Y88.848 Z13.462
X57.371 Y88.881 Z13.547
X57.401 Y88.905 Z13.639
X57.419 Y88.92 Z13.736
X57.425 Y88.924 Z13.835
G0 Z18.7
X74.527 Y100.7
Z14.47
G1 Z13.835 F1219.2
X74.525 Y100.693 Z13.736
X74.518 Y100.67 Z13.639
X74.507 Y100.634 Z13.547
X74.493 Y100.584 Z13.462
X74.474 Y100.522 Z13.386
X74.453 Y100.449 Z13.321
X74.429 Y100.368 Z13.269
X74.403 Y100.279 Z13.231
X74.376 Y100.186 Z13.208
X74.348 Y100.091 Z13.2
G3 X74.443 Y99.861 I0.19 J-0.056
G1 X75.403 Y99.381
X75.568 Y99.308
X75.707 Y99.253
X75.849 Y99.204
X75.997 Y99.161
X76.186 Y99.114
X76.437 Y99.062
X76.737 Y99.011
X77.103 Y98.965
X77.663 Y98.915
X78.643 Y98.868
X79.624 Y98.857
X80.606 Y98.855
X87.477 Y98.854
X98.764
X99.007 Y98.821
X99.242 Y98.75
X99.464 Y98.644
X99.666 Y98.506
X99.845 Y98.338
X99.995 Y98.144
X100.114 Y97.929
X100.199 Y97.699
X100.247 Y97.458
X100.257 Y97.213
X100.229 Y96.969
X100.164 Y96.733
X100.064 Y96.509
X99.796 Y96.097
X99.684 Y95.998
X99.59 Y95.88
X99.509 Y95.754
X99.439 Y95.622
X99.376 Y95.486
X99.32 Y95.346
X99.267 Y95.194
X99.211 Y95.01
X99.159 Y94.811
X99.1 Y94.544
X99.043 Y94.227
X98.99 Y93.844
X98.934 Y93.283
X98.882 Y92.433
X98.861 Y91.452
X98.856 Y90.471
X98.854 Y88.508
Y72.803
X98.855 Y63.97
X98.86 Y63.081
X98.888 Y62.483
X98.926 Y62.028
X98.97 Y61.674
X99.021 Y61.368
X99.072 Y61.12
X99.127 Y60.897
X99.184 Y60.699
X99.241 Y60.526
X99.294 Y60.386
X99.353 Y60.248
X99.417 Y60.112
X99.487 Y59.98
X99.565 Y59.852
X99.574 Y59.839
X99.767 Y59.607
X100.001 Y59.415
X100.267 Y59.271
X100.556 Y59.181
X100.856 Y59.147
X101.209 Y59.14
X101.25 Y59.138
G3 X101.493 Y59.185 I0.005 J0.635
G1 X101.585 Y59.222 Z13.208
X101.675 Y59.258 Z13.231
X101.76 Y59.293 Z13.269
X101.839 Y59.324 Z13.321
X101.909 Y59.353 Z13.386
X101.969 Y59.377 Z13.462
X102.018 Y59.397 Z13.547
X102.053 Y59.411 Z13.639
X102.075 Y59.42 Z13.736
X102.082 Y59.423 Z13.835
G0 Z18.7
X102.012 Y41.721
Z14.47
G1 Z13.835 F1219.2
X102.01 Y41.729 Z13.736
X102.004 Y41.752 Z13.639
X101.995 Y41.788 Z13.547
X101.982 Y41.839 Z13.462
X101.966 Y41.902 Z13.386
X101.947 Y41.975 Z13.321
X101.926 Y42.057 Z13.269
X101.903 Y42.147 Z13.231
X101.879 Y42.24 Z13.208
X101.855 Y42.337 Z13.2
G3 X101.655 Y42.486 I-0.192 J-0.049
G1 X101.432 Y42.47
X101.309 Y42.464
X101.22 Y42.456
X101.073 Y42.426
X100.934 Y42.37
X100.802 Y42.297
X100.679 Y42.212
X100.563 Y42.117
X100.454 Y42.014
X100.351 Y41.905
X100.255 Y41.79
X100.164 Y41.671
X100.078 Y41.547
X99.991 Y41.41
X99.907 Y41.266
X99.816 Y41.095
X99.726 Y40.907
X99.637 Y40.702
X99.543 Y40.461
X99.453 Y40.199
X99.361 Y39.893
X99.268 Y39.531
X99.184 Y39.147
X99.098 Y38.655
X99.012 Y38.026
X98.945 Y37.335
X98.89 Y36.355
X98.868 Y35.374
X98.859 Y34.392
X98.856 Y33.411
X98.854 Y31.448
Y2.984
X98.852 Y2.739
X98.813 Y2.496
X98.736 Y2.263
X98.624 Y2.045
X98.48 Y1.846
X98.308 Y1.672
X98.11 Y1.526
X97.892 Y1.413
X97.66 Y1.335
X97.418 Y1.293
X97.173 Y1.289
X97.051 Y1.306
G3 X96.804 Y1.284 I-0.066 J-0.632
G1 X96.709 Y1.255 Z13.208
X96.616 Y1.228 Z13.231
X96.528 Y1.202 Z13.269
X96.447 Y1.178 Z13.321
X96.374 Y1.156 Z13.386
X96.312 Y1.138 Z13.462
X96.262 Y1.123 Z13.547
X96.225 Y1.112 Z13.639
X96.203 Y1.105 Z13.736
X96.196 Y1.103 Z13.835
G0 Z18.7
X101.643 Y41.69
Z14.47
G1 Z13.835 F1219.2
X101.642 Y41.697 Z13.736
X101.637 Y41.72 Z13.639
X101.628 Y41.757 Z13.547
X101.617 Y41.808 Z13.462
X101.603 Y41.871 Z13.386
X101.586 Y41.945 Z13.321
X101.568 Y42.028 Z13.269
X101.547 Y42.118 Z13.231
X101.526 Y42.212 Z13.208
X101.504 Y42.309 Z13.2
G3 X101.309 Y42.464 I-0.194 J-0.043
G1 X101.209 Y42.46
X100.948 Y42.455
X100.863 Y42.449
X100.716 Y42.42
X100.575 Y42.367
X100.442 Y42.297
X100.317 Y42.215
X100.198 Y42.123
X100.087 Y42.023
X99.981 Y41.917
X99.881 Y41.805
X99.787 Y41.688
X99.698 Y41.568
X99.606 Y41.432
X99.517 Y41.289
X99.425 Y41.127
X99.328 Y40.939
X99.236 Y40.743
X99.14 Y40.513
X99.04 Y40.248
X98.949 Y39.975
X98.853 Y39.643
X98.754 Y39.242
X98.667 Y38.818
X98.58 Y38.289
X98.495 Y37.612
X98.429 Y36.843
X98.384 Y35.862
X98.366 Y34.881
X98.359 Y33.9
X98.356 Y32.918
X98.354 Y30.955
Y2.982
X98.313 Y2.74
X98.236 Y2.507
X98.123 Y2.289
X97.979 Y2.091
X97.805 Y1.917
X97.607 Y1.773
X97.389 Y1.66
X97.156 Y1.583
X96.914 Y1.542
X96.669 Y1.539
X96.547 Y1.557
X96.427 Y1.583
X96.31 Y1.619
G3 X96.063 Y1.636 I-0.165 J-0.613
G1 X95.964 Y1.623 Z13.208
X95.868 Y1.61 Z13.231
X95.777 Y1.598 Z13.269
X95.693 Y1.587 Z13.321
X95.618 Y1.578 Z13.386
X95.554 Y1.569 Z13.462
X95.502 Y1.562 Z13.547
X95.464 Y1.557 Z13.639
X95.441 Y1.554 Z13.736
X95.433 Y1.553 Z13.835
G0 Z18.7
X101.263 Y41.672
Z14.47
G1 Z13.835 F1219.2
X101.262 Y41.68 Z13.736
X101.257 Y41.703 Z13.639
X101.25 Y41.74 Z13.547
X101.24 Y41.791 Z13.462
X101.227 Y41.855 Z13.386
X101.212 Y41.929 Z13.321
X101.196 Y42.012 Z13.269
X101.178 Y42.103 Z13.231
X101.159 Y42.198 Z13.208
X101.14 Y42.295 Z13.2
G3 X100.948 Y42.455 I-0.195 J-0.039
G1 X100.585 Y42.449
X100.494 Y42.442
X100.346 Y42.416
X100.205 Y42.365
X100.071 Y42.298
X99.943 Y42.219
X99.823 Y42.13
X99.709 Y42.032
X99.601 Y41.928
X99.498 Y41.819
X99.401 Y41.704
X99.309 Y41.586
X99.215 Y41.454
X99.121 Y41.31
X99.026 Y41.152
X98.927 Y40.972
X98.829 Y40.774
X98.732 Y40.558
X98.627 Y40.3
X98.527 Y40.021
X98.43 Y39.715
X98.329 Y39.343
X98.232 Y38.923
X98.141 Y38.444
X98.051 Y37.847
X97.972 Y37.122
X97.906 Y36.187
X97.875 Y35.206
X97.862 Y34.224
X97.857 Y33.243
X97.855 Y32.261
X97.854 Y28.335
Y3.306
X97.826 Y3.063
X97.762 Y2.826
X97.661 Y2.602
X97.527 Y2.396
X97.363 Y2.214
X97.173 Y2.059
X96.961 Y1.935
X96.733 Y1.845
X96.494 Y1.791
X96.249 Y1.775
X96.004 Y1.797
X95.766 Y1.856
X94.862 Y2.237
X94.726 Y2.301
X94.586 Y2.356
X94.444 Y2.403
X94.297 Y2.445
X94.112 Y2.49
X93.868 Y2.54
X93.548 Y2.592
X93.17 Y2.639
X92.577 Y2.689
X91.597 Y2.733
X90.615 Y2.743
X89.634 Y2.745
X88.652 Y2.746
X76.874
X76.807 Y2.745
X76.561 Y2.724
X76.321 Y2.665
X76.093 Y2.569
X75.761 Y2.399
X75.119 Y2.078
G3 X74.929 Y1.919 I0.304 J-0.558
G1 X74.867 Y1.842 Z13.208
X74.806 Y1.766 Z13.231
X74.748 Y1.695 Z13.269
X74.695 Y1.629 Z13.321
X74.647 Y1.57 Z13.386
X74.606 Y1.519 Z13.462
X74.574 Y1.479 Z13.547
X74.55 Y1.449 Z13.639
X74.535 Y1.431 Z13.736
X74.53 Y1.425 Z13.835
G0 Z18.7
X70.084 Y0.824
Z14.47
G1 Z13.835 F1219.2
X70.087 Y0.832 Z13.736
X70.095 Y0.853 Z13.639
X70.11 Y0.888 Z13.547
X70.129 Y0.937 Z13.462
X70.154 Y0.997 Z13.386
X70.182 Y1.067 Z13.321
X70.214 Y1.146 Z13.269
X70.249 Y1.231 Z13.231
X70.285 Y1.321 Z13.208
X70.322 Y1.413 Z13.2
G3 X70.25 Y1.651 I-0.184 J0.075
G1 X70.126 Y1.73
X69.982 Y1.842
X69.841 Y1.953
X69.816 Y1.974
X69.72 Y2.05
X69.594 Y2.133
X69.462 Y2.204
X69.326 Y2.266
X69.186 Y2.32
X69.044 Y2.368
X68.875 Y2.418
X68.655 Y2.473
X68.414 Y2.524
X68.111 Y2.575
X67.673 Y2.632
X67.129 Y2.681
X66.149 Y2.73
X65.168 Y2.742
X64.186 Y2.745
X60.26 Y2.746
X33.759
X33.414 Y2.745
X33.14 Y2.733
X33.081 Y2.729
X32.783 Y2.676
X32.5 Y2.567
X32.243 Y2.406
X32.021 Y2.2
X32 Y2.176
X31.841 Y2.024
X31.759 Y1.953
X31.701 Y1.907
G3 X31.547 Y1.713 I0.41 J-0.485
G1 X31.501 Y1.625 Z13.208
X31.457 Y1.539 Z13.231
X31.414 Y1.457 Z13.269
X31.375 Y1.382 Z13.321
X31.341 Y1.314 Z13.386
X31.311 Y1.257 Z13.462
X31.287 Y1.211 Z13.547
X31.27 Y1.177 Z13.639
X31.259 Y1.156 Z13.736
X31.255 Y1.149 Z13.835
G0 Z18.7
X69.524 Y1.183
Z14.47
G1 Z13.835 F1219.2
X69.528 Y1.19 Z13.736
X69.54 Y1.209 Z13.639
X69.56 Y1.242 Z13.547
X69.586 Y1.287 Z13.462
X69.62 Y1.342 Z13.386
X69.659 Y1.407 Z13.321
X69.702 Y1.48 Z13.269
X69.75 Y1.559 Z13.231
X69.8 Y1.642 Z13.208
X69.851 Y1.727 Z13.2
G3 X69.816 Y1.974 I-0.17 J0.102
G1 X69.759 Y2.024
X69.6 Y2.176
X69.514 Y2.273
X69.431 Y2.357
X69.318 Y2.456
X69.194 Y2.542
X69.065 Y2.617
X68.93 Y2.683
X68.792 Y2.742
X68.64 Y2.798
X68.484 Y2.85
X68.282 Y2.907
X68.053 Y2.963
X67.78 Y3.019
X67.39 Y3.082
X66.956 Y3.136
X66.316 Y3.189
X65.335 Y3.232
X64.354 Y3.242
X63.372 Y3.245
X58.465 Y3.246
X34.027
X33.73 Y3.234
X33.546 Y3.219
X33.397 Y3.202
X33.357 Y3.195
X33.058 Y3.117
X32.78 Y2.983
X32.533 Y2.797
X32.327 Y2.566
X32.287 Y2.512
X32.198 Y2.399
X32.021 Y2.2
G3 X31.904 Y1.982 I0.489 J-0.404
G1 X31.875 Y1.887 Z13.208
X31.846 Y1.794 Z13.231
X31.819 Y1.706 Z13.269
X31.794 Y1.625 Z13.321
X31.772 Y1.552 Z13.386
X31.753 Y1.49 Z13.462
X31.738 Y1.441 Z13.547
X31.727 Y1.404 Z13.639
X31.72 Y1.382 Z13.736
X31.717 Y1.375 Z13.835
G0 Z18.7
X69.123 Y1.525
Z14.47
G1 Z13.835 F1219.2
X69.128 Y1.531 Z13.736
X69.142 Y1.549 Z13.639
X69.166 Y1.579 Z13.547
X69.198 Y1.62 Z13.462
X69.238 Y1.671 Z13.386
X69.285 Y1.731 Z13.321
X69.338 Y1.797 Z13.269
X69.395 Y1.87 Z13.231
X69.455 Y1.946 Z13.208
X69.517 Y2.024 Z13.2
G3 X69.514 Y2.273 I-0.156 J0.123
G1 X69.402 Y2.399
X69.313 Y2.512
X69.232 Y2.622
X69.175 Y2.698
X69.07 Y2.806
X68.954 Y2.9
X68.829 Y2.983
X68.699 Y3.058
X68.565 Y3.125
X68.428 Y3.186
X68.279 Y3.244
X68.107 Y3.303
X67.906 Y3.364
X67.678 Y3.424
X67.378 Y3.49
X67.062 Y3.546
X66.589 Y3.612
X66.042 Y3.666
X65.146 Y3.719
X64.165 Y3.738
X63.183 Y3.744
X62.202 Y3.745
X34.719 Y3.746
X34.308 Y3.736
X34.094 Y3.723
X33.869 Y3.7
X33.72 Y3.679
X33.567 Y3.651
X33.266 Y3.549
X32.992 Y3.389
X32.755 Y3.178
X32.565 Y2.924
X32.51 Y2.832
X32.368 Y2.622
X32.327 Y2.566
G3 X32.23 Y2.338 I0.525 J-0.357
G1 X32.21 Y2.241 Z13.208
X32.19 Y2.146 Z13.231
X32.172 Y2.056 Z13.269
X32.154 Y1.973 Z13.321
X32.139 Y1.899 Z13.386
X32.126 Y1.835 Z13.462
X32.115 Y1.784 Z13.547
X32.107 Y1.747 Z13.639
X32.103 Y1.724 Z13.736
X32.101 Y1.717 Z13.835
G0 Z18.7
X68.747 Y1.931
Z14.47
G1 Z13.835 F1219.2
X68.753 Y1.937 Z13.736
X68.77 Y1.953 Z13.639
X68.797 Y1.98 Z13.547
X68.834 Y2.016 Z13.462
X68.881 Y2.061 Z13.386
X68.935 Y2.114 Z13.321
X68.996 Y2.173 Z13.269
X69.062 Y2.237 Z13.231
X69.131 Y2.305 Z13.208
X69.203 Y2.374 Z13.2
G3 X69.232 Y2.622 I-0.138 J0.142
G1 X69.09 Y2.832
X69.026 Y2.938
X68.965 Y3.029
X68.871 Y3.146
X68.763 Y3.249
X68.645 Y3.342
X68.52 Y3.425
X68.39 Y3.501
X68.257 Y3.569
X68.12 Y3.631
X67.968 Y3.693
X67.796 Y3.755
X67.585 Y3.823
X67.355 Y3.886
X67.065 Y3.954
X66.746 Y4.016
X66.278 Y4.087
X65.796 Y4.142
X65.017 Y4.199
X64.036 Y4.232
X63.055 Y4.242
X62.073 Y4.245
X59.129 Y4.246
X35.572
X34.916 Y4.241
X34.551 Y4.224
X34.344 Y4.207
X34.154 Y4.183
X33.977 Y4.154
X33.83 Y4.124
X33.814 Y4.12
X33.526 Y4.014
X33.264 Y3.855
X33.037 Y3.649
X32.853 Y3.402
X32.565 Y2.924
G3 X32.489 Y2.688 I0.555 J-0.309
G1 X32.478 Y2.589 Z13.208
X32.467 Y2.493 Z13.231
X32.456 Y2.401 Z13.269
X32.446 Y2.317 Z13.321
X32.438 Y2.242 Z13.386
X32.43 Y2.177 Z13.462
X32.424 Y2.126 Z13.547
X32.42 Y2.088 Z13.639
X32.417 Y2.065 Z13.736
Y2.057 Z13.835
G0 Z18.7
X68.506 Y2.274
Z14.47
G1 Z13.835 F1219.2
X68.512 Y2.279 Z13.736
X68.529 Y2.294 Z13.639
X68.558 Y2.32 Z13.547
X68.597 Y2.354 Z13.462
X68.646 Y2.397 Z13.386
X68.703 Y2.447 Z13.321
X68.767 Y2.503 Z13.269
X68.836 Y2.563 Z13.231
X68.909 Y2.627 Z13.208
X68.983 Y2.693 Z13.2
G3 X69.026 Y2.938 I-0.131 J0.149
G1 X68.773 Y3.358
X68.711 Y3.451
X68.616 Y3.568
X68.509 Y3.673
X68.392 Y3.767
X68.269 Y3.853
X68.141 Y3.93
X68.009 Y4.001
X67.874 Y4.066
X67.717 Y4.134
X67.553 Y4.197
X67.339 Y4.27
X67.119 Y4.336
X66.84 Y4.408
X66.54 Y4.472
X66.118 Y4.545
X65.672 Y4.605
X64.997 Y4.669
X64.017 Y4.722
X63.036 Y4.738
X62.054 Y4.744
X61.073 Y4.745
X48.313 Y4.746
X36.535
X35.553 Y4.744
X35.09 Y4.731
X34.755 Y4.708
X34.563 Y4.687
X34.375 Y4.659
X34.21 Y4.628
X34.15 Y4.614
X33.849 Y4.513
X33.573 Y4.353
X33.335 Y4.141
X33.145 Y3.886
X32.853 Y3.402
G3 X32.778 Y3.166 I0.555 J-0.309
G1 X32.766 Y3.068 Z13.208
X32.755 Y2.971 Z13.231
X32.745 Y2.88 Z13.269
X32.735 Y2.796 Z13.321
X32.726 Y2.72 Z13.386
X32.719 Y2.656 Z13.462
X32.713 Y2.604 Z13.547
X32.709 Y2.566 Z13.639
X32.706 Y2.543 Z13.736
X32.705 Y2.536 Z13.835
G0 Z18.7
X68.253 Y2.694
Z14.47
G1 Z13.835 F1219.2
X68.259 Y2.699 Z13.736
X68.276 Y2.715 Z13.639
X68.305 Y2.74 Z13.547
X68.344 Y2.774 Z13.462
X68.393 Y2.817 Z13.386
X68.45 Y2.867 Z13.321
X68.513 Y2.923 Z13.269
X68.583 Y2.983 Z13.231
X68.656 Y3.047 Z13.208
X68.73 Y3.113 Z13.2
G3 X68.773 Y3.358 I-0.131 J0.149
G1 X68.507 Y3.799
X68.444 Y3.894
X68.35 Y4.011
X68.243 Y4.116
X68.127 Y4.211
X68.005 Y4.298
X67.878 Y4.378
X67.747 Y4.451
X67.612 Y4.517
X67.461 Y4.585
X67.291 Y4.654
X67.089 Y4.726
X66.863 Y4.797
X66.605 Y4.867
X66.289 Y4.94
X65.917 Y5.01
X65.439 Y5.081
X64.842 Y5.145
X64.003 Y5.203
X63.022 Y5.233
X62.04 Y5.242
X61.059 Y5.244
X58.114 Y5.246
X36.521 Y5.245
X35.711 Y5.24
X35.293 Y5.22
X35.003 Y5.196
X34.809 Y5.171
X34.602 Y5.137
X34.455 Y5.107
X34.409 Y5.095
X34.118 Y4.991
X33.853 Y4.831
X33.624 Y4.624
X33.439 Y4.375
X33.145 Y3.886
G3 X33.069 Y3.65 I0.555 J-0.308
G1 X33.058 Y3.551 Z13.208
X33.047 Y3.455 Z13.231
X33.036 Y3.364 Z13.269
X33.026 Y3.279 Z13.321
X33.018 Y3.204 Z13.386
X33.01 Y3.14 Z13.462
X33.004 Y3.088 Z13.547
X33 Y3.05 Z13.639
X32.997 Y3.027 Z13.736
Y3.019 Z13.835
G0 Z18.7
X67.987 Y3.135
Z14.47
G1 Z13.835 F1219.2
X67.993 Y3.141 Z13.736
X68.01 Y3.156 Z13.639
X68.039 Y3.181 Z13.547
X68.078 Y3.215 Z13.462
X68.127 Y3.258 Z13.386
X68.184 Y3.308 Z13.321
X68.248 Y3.364 Z13.269
X68.317 Y3.424 Z13.231
X68.39 Y3.488 Z13.208
X68.465 Y3.554 Z13.2
G3 X68.507 Y3.799 I-0.131 J0.149
G1 X68.233 Y4.255
X68.169 Y4.351
X68.075 Y4.468
X67.968 Y4.573
X67.853 Y4.669
X67.731 Y4.757
X67.605 Y4.838
X67.474 Y4.911
X67.341 Y4.979
X67.19 Y5.049
X67.016 Y5.121
X66.824 Y5.191
X66.59 Y5.267
X66.335 Y5.339
X66.005 Y5.418
X65.661 Y5.486
X65.16 Y5.565
X64.648 Y5.626
X63.848 Y5.689
X62.867 Y5.727
X61.885 Y5.74
X60.904 Y5.744
X58.941 Y5.746
X37.348
X36.366 Y5.743
X35.821 Y5.729
X35.448 Y5.704
X35.21 Y5.679
X35.019 Y5.652
X34.832 Y5.617
X34.685 Y5.584
X34.671 Y5.58
X34.391 Y5.472
X34.136 Y5.314
X33.915 Y5.11
X33.737 Y4.869
X33.439 Y4.375
G3 X33.364 Y4.14 I0.555 J-0.308
G1 X33.352 Y4.041 Z13.208
X33.341 Y3.945 Z13.231
X33.331 Y3.853 Z13.269
X33.321 Y3.769 Z13.321
X33.312 Y3.693 Z13.386
X33.305 Y3.629 Z13.462
X33.299 Y3.577 Z13.547
X33.295 Y3.54 Z13.639
X33.292 Y3.516 Z13.736
X33.291 Y3.509 Z13.835
G0 Z18.7
X67.713 Y3.591
Z14.47
G1 Z13.835 F1219.2
X67.719 Y3.596 Z13.736
X67.736 Y3.611 Z13.639
X67.765 Y3.637 Z13.547
X67.804 Y3.671 Z13.462
X67.853 Y3.713 Z13.386
X67.91 Y3.763 Z13.321
X67.973 Y3.819 Z13.269
X68.043 Y3.88 Z13.231
X68.116 Y3.944 Z13.208
X68.19 Y4.009 Z13.2
G3 X68.233 Y4.255 I-0.131 J0.149
G1 X67.958 Y4.712
X67.892 Y4.811
X67.799 Y4.928
X67.693 Y5.035
X67.578 Y5.132
X67.457 Y5.22
X67.332 Y5.302
X67.202 Y5.377
X67.068 Y5.446
X66.917 Y5.517
X66.742 Y5.591
X66.554 Y5.663
X66.319 Y5.741
X66.062 Y5.816
X65.741 Y5.895
X65.407 Y5.965
X64.934 Y6.044
X64.419 Y6.109
X63.668 Y6.174
X62.687 Y6.221
X61.706 Y6.237
X60.724 Y6.243
X59.743 Y6.245
X54.835 Y6.246
X38.15
X37.168 Y6.245
X36.364 Y6.236
X35.925 Y6.215
X35.594 Y6.185
X35.404 Y6.161
X35.21 Y6.128
X35.118 Y6.109
X34.846 Y6.026
X34.593 Y5.896
X34.367 Y5.722
X34.176 Y5.512
X34.015 Y5.298
X33.861 Y5.075
X33.737 Y4.869
G3 X33.661 Y4.633 I0.555 J-0.308
G1 X33.65 Y4.534 Z13.208
X33.639 Y4.438 Z13.231
X33.628 Y4.347 Z13.269
X33.618 Y4.262 Z13.321
X33.61 Y4.187 Z13.386
X33.602 Y4.123 Z13.462
X33.596 Y4.071 Z13.547
X33.592 Y4.033 Z13.639
X33.589 Y4.01 Z13.736
X33.588 Y4.002 Z13.835
G0 Z18.7
X67.437 Y4.048
Z14.47
G1 Z13.835 F1219.2
X67.443 Y4.053 Z13.736
X67.461 Y4.069 Z13.639
X67.489 Y4.094 Z13.547
X67.529 Y4.128 Z13.462
X67.577 Y4.171 Z13.386
X67.634 Y4.221 Z13.321
X67.698 Y4.277 Z13.269
X67.767 Y4.337 Z13.231
X67.84 Y4.401 Z13.208
X67.915 Y4.467 Z13.2
G3 X67.958 Y4.712 I-0.131 J0.149
G1 X67.739 Y5.075
X67.616 Y5.253
X67.539 Y5.354
X67.439 Y5.466
X67.329 Y5.567
X67.211 Y5.66
X67.088 Y5.745
X66.96 Y5.824
X66.829 Y5.896
X66.682 Y5.969
X66.522 Y6.041
X66.339 Y6.114
X66.126 Y6.19
X65.881 Y6.267
X65.587 Y6.347
X65.273 Y6.419
X64.836 Y6.502
X64.388 Y6.568
X63.713 Y6.641
X62.837 Y6.702
X61.856 Y6.731
X60.875 Y6.741
X59.893 Y6.744
X57.93 Y6.746
X38.3
X37.318 Y6.744
X36.602 Y6.732
X36.176 Y6.709
X35.916 Y6.684
X35.68 Y6.652
X35.524 Y6.625
X35.504 Y6.62
X35.243 Y6.54
X35 Y6.417
X34.782 Y6.253
X34.595 Y6.055
X34.518 Y5.958
X34.352 Y5.744
X34.176 Y5.512
G3 X34.076 Y5.285 I0.52 J-0.365
G1 X34.055 Y5.188 Z13.208
X34.034 Y5.094 Z13.231
X34.014 Y5.004 Z13.269
X33.995 Y4.921 Z13.321
X33.979 Y4.847 Z13.386
X33.964 Y4.784 Z13.462
X33.953 Y4.733 Z13.547
X33.945 Y4.696 Z13.639
X33.94 Y4.673 Z13.736
X33.938 Y4.665 Z13.835
G0 Z18.7
X66.996 Y4.709
Z14.47
G1 Z13.835 F1219.2
X67.003 Y4.713 Z13.736
X67.023 Y4.724 Z13.639
X67.057 Y4.742 Z13.547
X67.102 Y4.767 Z13.462
X67.159 Y4.798 Z13.386
X67.226 Y4.834 Z13.321
X67.301 Y4.874 Z13.269
X67.382 Y4.918 Z13.231
X67.467 Y4.964 Z13.208
X67.554 Y5.012 Z13.2
G3 X67.616 Y5.253 I-0.081 J0.15
G1 X67.585 Y5.298
X67.248 Y5.744
X67.179 Y5.834
X67.093 Y5.933
X66.988 Y6.04
X66.873 Y6.136
X66.752 Y6.225
X66.625 Y6.305
X66.495 Y6.38
X66.361 Y6.448
X66.207 Y6.519
X66.036 Y6.591
X65.828 Y6.668
X65.599 Y6.743
X65.335 Y6.818
X65.013 Y6.896
X64.635 Y6.972
X64.145 Y7.051
X63.59 Y7.118
X62.787 Y7.183
X61.807 Y7.224
X60.825 Y7.238
X59.844 Y7.243
X58.862 Y7.245
X53.955 Y7.246
X38.25 Y7.245
X37.269 Y7.24
X36.727 Y7.222
X36.39 Y7.198
X36.176 Y7.174
X35.98 Y7.144
X35.943 Y7.137
X35.673 Y7.06
X35.42 Y6.936
X35.193 Y6.769
X34.999 Y6.565
X34.595 Y6.055
G3 X34.489 Y5.831 I0.511 J-0.377
G1 X34.466 Y5.734 Z13.208
X34.442 Y5.64 Z13.231
X34.42 Y5.551 Z13.269
X34.4 Y5.468 Z13.321
X34.381 Y5.395 Z13.386
X34.366 Y5.332 Z13.462
X34.353 Y5.282 Z13.547
X34.344 Y5.244 Z13.639
X34.339 Y5.222 Z13.736
X34.337 Y5.214 Z13.835
G0 Z18.7
X66.575 Y6.169
Z14.47
G1 Z13.835 F1219.2
X66.58 Y6.163 Z13.736
X66.595 Y6.145 Z13.639
X66.62 Y6.115 Z13.547
X66.653 Y6.075 Z13.462
X66.694 Y6.026 Z13.386
X66.743 Y5.967 Z13.321
X66.797 Y5.902 Z13.269
X66.856 Y5.831 Z13.231
X66.918 Y5.757 Z13.208
X66.982 Y5.681 Z13.2
G3 X67.179 Y5.834 I0.096 J0.08
G1 X67.075 Y5.968
X66.749 Y6.378
X66.666 Y6.473
X66.558 Y6.578
X66.442 Y6.672
X66.319 Y6.758
X66.191 Y6.837
X66.06 Y6.909
X65.921 Y6.978
X65.764 Y7.048
X65.582 Y7.12
X65.375 Y7.194
X65.127 Y7.271
X64.842 Y7.348
X64.513 Y7.423
X64.093 Y7.501
X63.611 Y7.572
X62.928 Y7.644
X62.035 Y7.704
X61.054 Y7.731
X60.073 Y7.741
X59.091 Y7.744
X57.128 Y7.746
X38.479 Y7.745
X37.498 Y7.741
X37.005 Y7.721
X36.744 Y7.7
X36.506 Y7.671
X36.354 Y7.646
X36.333 Y7.642
X36.066 Y7.564
X35.817 Y7.44
X35.593 Y7.274
X35.402 Y7.072
X34.999 Y6.565
G3 X34.894 Y6.34 I0.511 J-0.377
G1 X34.87 Y6.244 Z13.208
X34.847 Y6.15 Z13.231
X34.824 Y6.061 Z13.269
X34.804 Y5.978 Z13.321
X34.786 Y5.905 Z13.386
X34.77 Y5.842 Z13.462
X34.758 Y5.791 Z13.547
X34.748 Y5.754 Z13.639
X34.743 Y5.732 Z13.736
X34.741 Y5.724 Z13.835
G0 Z18.7
X66.318 Y5.653
Z14.47
G1 Z13.835 F1219.2
X66.323 Y5.659 Z13.736
X66.338 Y5.676 Z13.639
X66.364 Y5.705 Z13.547
X66.398 Y5.744 Z13.462
X66.441 Y5.792 Z13.386
X66.491 Y5.849 Z13.321
X66.547 Y5.913 Z13.269
X66.608 Y5.982 Z13.231
X66.672 Y6.055 Z13.208
X66.738 Y6.129 Z13.2
G3 X66.749 Y6.378 I-0.149 J0.131
G1 X66.367 Y6.86
X66.277 Y6.962
X66.172 Y7.069
X66.057 Y7.165
X65.935 Y7.252
X65.808 Y7.332
X65.677 Y7.406
X65.541 Y7.474
X65.392 Y7.541
X65.214 Y7.614
X65.014 Y7.686
X64.773 Y7.763
X64.509 Y7.835
X64.168 Y7.915
X63.789 Y7.988
X63.257 Y8.069
X62.699 Y8.132
X61.832 Y8.195
X60.851 Y8.227
X59.869 Y8.239
X58.888 Y8.243
X56.925 Y8.245
X39.257 Y8.246
X38.276 Y8.244
X37.629 Y8.233
X37.252 Y8.212
X37.039 Y8.191
X36.914 Y8.174
X36.587 Y8.094
X36.284 Y7.947
X36.02 Y7.739
X35.804 Y7.529
X35.633 Y7.361
X35.587 Y7.306
X35.402 Y7.072
G3 X35.908 Y6.06 I0.511 J-0.377
G1 X65.851 Y5.848
G3 X66.367 Y6.86 I0.005 J0.635
G1 X66.013 Y7.306
X65.967 Y7.361
X65.796 Y7.529
X65.684 Y7.628
X65.566 Y7.721
X65.442 Y7.805
X65.313 Y7.881
X65.18 Y7.951
X65.042 Y8.017
X64.878 Y8.087
X64.696 Y8.157
X64.478 Y8.231
X64.222 Y8.306
X63.919 Y8.383
X63.583 Y8.454
X63.129 Y8.532
X62.616 Y8.599
X61.88 Y8.667
X60.9 Y8.718
X59.918 Y8.735
X58.937 Y8.742
X57.955 Y8.744
X55.011 Y8.746
X39.307 Y8.745
X38.325 Y8.741
X37.863 Y8.726
X37.618 Y8.709
X37.479 Y8.693
X37.222 Y8.643
X36.977 Y8.551
X36.75 Y8.42
X36.548 Y8.253
X36.02 Y7.739
G3 X36.474 Y6.665 I0.458 J-0.439
G1 X65.331 Y6.457
G3 X65.796 Y7.529 I0.005 J0.635
G1 X65.241 Y8.069
X65.071 Y8.219
X64.95 Y8.308
X64.823 Y8.388
X64.692 Y8.46
X64.557 Y8.526
X64.419 Y8.588
X64.245 Y8.656
X64.05 Y8.725
X63.819 Y8.796
X63.553 Y8.866
X63.228 Y8.939
X62.83 Y9.012
X62.334 Y9.083
X61.691 Y9.149
X60.747 Y9.209
X59.766 Y9.232
X58.784 Y9.241
X57.803 Y9.244
X55.84 Y9.245
X40.136 Y9.246
X39.154 Y9.244
X38.497 Y9.236
X38.196 Y9.22
X37.994 Y9.202
X37.973 Y9.199
X37.644 Y9.119
X37.339 Y8.972
X37.072 Y8.763
X36.548 Y8.253
G3 X37.002 Y7.179 I0.458 J-0.439
G1 X64.778 Y6.995
G3 X65.241 Y8.069 I0.004 J0.635
G1 X64.691 Y8.604
X64.579 Y8.703
X64.462 Y8.796
X64.338 Y8.88
X64.208 Y8.956
X64.075 Y9.024
X63.938 Y9.086
X63.777 Y9.152
X63.602 Y9.216
X63.376 Y9.288
X63.142 Y9.353
X62.819 Y9.429
X62.488 Y9.493
X61.991 Y9.57
X61.456 Y9.631
X60.632 Y9.692
X59.652 Y9.727
X58.67 Y9.739
X57.689 Y9.743
X56.707 Y9.745
X50.818 Y9.746
X40.021 Y9.745
X39.046 Y9.741
X38.783 Y9.729
X38.622 Y9.716
X38.315 Y9.659
X38.024 Y9.543
X37.761 Y9.373
X37.687 Y9.313
X37.194 Y8.882
X37.072 Y8.763
G3 X37.527 Y7.688 I0.458 J-0.439
G1 X64.229 Y7.53
G3 X64.824 Y8.395 I0.004 J0.635
X64.691 Y8.604 I-0.592 J-0.231
G1 X64.406 Y8.882
X64.025 Y9.215
X63.91 Y9.306
X63.787 Y9.392
X63.658 Y9.469
X63.525 Y9.539
X63.389 Y9.601
X63.246 Y9.66
X63.062 Y9.728
X62.866 Y9.791
X62.618 Y9.861
X62.346 Y9.926
X61.994 Y9.995
X61.562 Y10.063
X61.009 Y10.128
X60.24 Y10.188
X59.259 Y10.225
X58.277 Y10.238
X57.296 Y10.243
X56.314 Y10.245
X51.407 Y10.246
X40.61 Y10.245
X39.629 Y10.243
X39.33 Y10.231
X39.309 Y10.229
X39.015 Y10.178
X38.736 Y10.073
X38.481 Y9.917
X37.863 Y9.454
X37.761 Y9.373
G3 X38.172 Y8.256 I0.414 J-0.481
G1 X63.587 Y8.117
G3 X64.025 Y9.215 I0.003 J0.635
G1 X63.913 Y9.313
X63.737 Y9.454
X63.223 Y9.839
X63.031 Y9.968
X62.901 Y10.042
X62.766 Y10.109
X62.629 Y10.168
X62.475 Y10.227
X62.302 Y10.286
X62.076 Y10.353
X61.844 Y10.412
X61.528 Y10.479
X61.157 Y10.543
X60.68 Y10.606
X60.025 Y10.667
X59.045 Y10.719
X58.063 Y10.736
X57.082 Y10.742
X56.1 Y10.744
X52.174 Y10.746
X41.378
X40.396 Y10.744
X40.094 Y10.739
X40.009 Y10.734
X39.726 Y10.692
X39.455 Y10.599
X39.206 Y10.46
X38.481 Y9.917
G3 X38.877 Y8.788 I0.398 J-0.495
G1 X62.823 Y8.71
G3 X63.223 Y9.839 I0.002 J0.635
G1 X62.474 Y10.4
X62.352 Y10.483
X62.223 Y10.558
X62.089 Y10.626
X61.951 Y10.686
X61.805 Y10.742
X61.63 Y10.802
X61.44 Y10.859
X61.186 Y10.923
X60.908 Y10.983
X60.546 Y11.046
X60.053 Y11.111
X59.452 Y11.168
X58.472 Y11.221
X57.491 Y11.237
X56.509 Y11.243
X55.528 Y11.245
X51.602 Y11.246
X41.786
X40.902 Y11.245
X40.814 Y11.241
X40.54 Y11.206
X40.275 Y11.124
X40.029 Y10.997
X39.837 Y10.875
X39.425 Y10.609
X39.206 Y10.46
G3 X39.581 Y9.313 I0.376 J-0.512
G1 X62.075 Y9.271
G3 X62.474 Y10.4 I0.001 J0.635
G1 X62.398 Y10.457
X62.175 Y10.609
X61.729 Y10.897
X61.551 Y11.009
X61.348 Y11.123
X61.212 Y11.187
X61.073 Y11.244
X60.926 Y11.297
X60.756 Y11.351
X60.533 Y11.412
X60.3 Y11.467
X59.991 Y11.526
X59.558 Y11.591
X59.087 Y11.644
X58.318 Y11.699
X57.337 Y11.731
X56.356 Y11.741
X55.374 Y11.744
X53.411 Y11.746
X41.763 Y11.745
X41.492 Y11.722
X41.23 Y11.653
X40.982 Y11.54
X40.094 Y11.038
X40.029 Y10.997
G3 X40.388 Y9.837 I0.358 J-0.524
G1 X61.194 Y9.85
G3 X61.551 Y11.009 J0.635
G1 X61.506 Y11.038
X60.49 Y11.612
X60.279 Y11.716
X60.141 Y11.774
X60 Y11.825
X59.85 Y11.873
X59.658 Y11.925
X59.402 Y11.985
X59.139 Y12.036
X58.775 Y12.091
X58.273 Y12.147
X57.537 Y12.201
X56.556 Y12.233
X55.575 Y12.242
X54.593 Y12.245
X51.649 Y12.246
X42.815
X42.685 Y12.245
X42.467 Y12.228
X42.253 Y12.181
X42.048 Y12.105
X41.791 Y11.99
X41.655 Y11.92
X40.982 Y11.54
G3 X41.316 Y10.363 I0.332 J-0.542
G1 X60.161 Y10.435
G3 X60.49 Y11.612 I-0.002 J0.635
G1 X59.945 Y11.92
X59.809 Y11.99
X59.276 Y12.229
X58.917 Y12.358
X58.757 Y12.407
X58.552 Y12.461
X58.341 Y12.507
X58.059 Y12.559
X57.659 Y12.615
X57.175 Y12.664
X56.344 Y12.715
X55.363 Y12.738
X54.381 Y12.743
X53.4 Y12.745
X43.9 Y12.746
X43.697 Y12.733
X43.497 Y12.693
X43.303 Y12.629
X42.547 Y12.322
X42.324 Y12.229
X42.048 Y12.105
G3 X42.333 Y10.9 I0.28 J-0.57
G1 X59 Y11.025
G3 X59.276 Y12.229 I-0.005 J0.635
G1 X59.053 Y12.322
X57.815 Y12.825
X57.727 Y12.855
X57.584 Y12.903
X57.416 Y12.951
X57.228 Y12.997
X57.006 Y13.042
X56.703 Y13.091
X56.295 Y13.141
X55.701 Y13.19
X54.721 Y13.233
X53.739 Y13.242
X52.758 Y13.245
X47.85 Y13.246
X45.289
X45.153 Y13.24
X45.019 Y13.222
X44.886 Y13.193
X44.778 Y13.165
X44.578 Y13.105
X43.886 Y12.865
X43.303 Y12.629
G3 X43.571 Y11.414 I0.259 J-0.58
G1 X57.565 Y11.61
G3 X57.815 Y12.825 I-0.009 J0.635
G1 X57.714 Y12.865
X57.022 Y13.105
X56.822 Y13.165
X55.707 Y13.459
X55.27 Y13.55
X55.009 Y13.594
X54.654 Y13.639
X54.126 Y13.686
X53.146 Y13.733
X52.165 Y13.743
X51.183 Y13.745
X47.234 Y13.746
X47.117 Y13.741
X47 Y13.728
X46.885 Y13.707
G3 X47.028 Y12.458 I0.161 J-0.614
G1 X55.506 Y12.216
G3 X55.707 Y13.459 I0.018 J0.635
G1 X55.484 Y13.517
X55.261 Y13.574
X54.815 Y13.684
X54.592 Y13.735
X52.361 Y14.023
X52.138 Y14.033
X51.692 Y14.05
X51.469 Y14.055
X50.131
X49.908 Y14.05
X49.462 Y14.033
X49.239 Y14.023
X47.008 Y13.735
X46.785 Y13.684
X46.249 Y13.551
X46.116 Y13.517
X44.886 Y13.193
G3 X44.667 Y13.077 I0.183 J-0.608
G1 X44.59 Y13.014 Z13.208
X44.515 Y12.953 Z13.231
X44.443 Y12.895 Z13.269
X44.378 Y12.841 Z13.321
X44.319 Y12.793 Z13.386
X44.269 Y12.752 Z13.462
X44.229 Y12.719 Z13.547
X44.199 Y12.695 Z13.639
X44.181 Y12.68 Z13.736
X44.175 Y12.676 Z13.835
G0 Z18.7
X27.073 Y0.9
Z14.47
G1 Z13.835 F1219.2
X27.075 Y0.907 Z13.736
X27.082 Y0.93 Z13.639
X27.093 Y0.966 Z13.547
X27.107 Y1.016 Z13.462
X27.126 Y1.078 Z13.386
X27.147 Y1.151 Z13.321
X27.171 Y1.232 Z13.269
X27.197 Y1.321 Z13.231
X27.224 Y1.414 Z13.208
X27.252 Y1.509 Z13.2
G3 X27.157 Y1.739 I-0.19 J0.056
G1 X26.197 Y2.219
X26.032 Y2.292
X25.893 Y2.347
X25.751 Y2.396
X25.603 Y2.439
X25.414 Y2.486
X25.163 Y2.538
X24.863 Y2.589
X24.497 Y2.635
X23.937 Y2.685
X22.957 Y2.732
X21.976 Y2.743
X20.994 Y2.745
X14.123 Y2.746
X2.836
X2.593 Y2.779
X2.358 Y2.849
X2.136 Y2.955
X1.934 Y3.093
X1.755 Y3.261
X1.604 Y3.454
X1.484 Y3.669
X1.4 Y3.899
X1.351 Y4.14
X1.341 Y4.385
X1.368 Y4.629
X1.432 Y4.865
X1.533 Y5.089
X2.067 Y5.913
X2.144 Y6.042
X2.211 Y6.176
X2.27 Y6.314
X2.321 Y6.455
X2.373 Y6.615
X2.424 Y6.796
X2.48 Y7.033
X2.536 Y7.317
X2.588 Y7.648
X2.646 Y8.14
X2.696 Y8.787
X2.733 Y9.768
X2.742 Y10.749
X2.745 Y11.731
X2.746 Y17.62
Y28.417
Y37.25
X2.744 Y38.232
X2.724 Y38.905
X2.691 Y39.397
X2.648 Y39.79
X2.6 Y40.112
X2.55 Y40.381
X2.496 Y40.617
X2.439 Y40.826
X2.382 Y41.008
X2.332 Y41.149
X2.276 Y41.288
X2.211 Y41.43
X2.144 Y41.564
X2.069 Y41.694
X2.043 Y41.734
X1.85 Y41.975
X1.614 Y42.174
X1.344 Y42.324
X1.05 Y42.418
X0.743 Y42.454
X0.391 Y42.46
X0.35 Y42.462
G3 X0.107 Y42.415 I-0.005 J-0.635
G1 X0.015 Y42.378 Z13.208
X-0.075 Y42.342 Z13.231
X-0.16 Y42.307 Z13.269
X-0.239 Y42.276 Z13.321
X-0.309 Y42.247 Z13.386
X-0.369 Y42.223 Z13.462
X-0.418 Y42.203 Z13.547
X-0.453 Y42.189 Z13.639
X-0.475 Y42.18 Z13.736
X-0.482 Y42.177 Z13.835
G0 Z18.7
X0.701 Y59.934
Z14.47
G1 Z13.835 F1219.2
X0.702 Y59.927 Z13.736
X0.707 Y59.904 Z13.639
X0.714 Y59.866 Z13.547
X0.724 Y59.815 Z13.462
X0.737 Y59.752 Z13.386
X0.751 Y59.677 Z13.321
X0.768 Y59.594 Z13.269
X0.786 Y59.504 Z13.231
X0.805 Y59.409 Z13.208
X0.824 Y59.311 Z13.2
G3 X1.015 Y59.151 I0.195 J0.039
G1 X1.406 Y59.159
X1.498 Y59.165
X1.646 Y59.192
X1.788 Y59.241
X1.922 Y59.307
X2.051 Y59.385
X2.172 Y59.472
X2.288 Y59.568
X2.398 Y59.67
X2.502 Y59.778
X2.601 Y59.891
X2.695 Y60.008
X2.79 Y60.136
X2.89 Y60.283
X2.986 Y60.437
X3.088 Y60.615
X3.193 Y60.817
X3.293 Y61.028
X3.397 Y61.274
X3.506 Y61.562
X3.606 Y61.86
X3.708 Y62.209
X3.815 Y62.634
X3.909 Y63.088
X4.001 Y63.634
X4.093 Y64.346
X4.165 Y65.16
X4.213 Y66.14
X4.232 Y67.122
X4.241 Y68.103
X4.244 Y69.085
X4.245 Y71.048
X4.246 Y98.039
X4.272 Y98.283
X4.336 Y98.52
X4.436 Y98.744
X4.569 Y98.951
X4.732 Y99.134
X4.922 Y99.29
X5.133 Y99.415
X5.361 Y99.505
X5.6 Y99.56
X5.845 Y99.577
X6.089 Y99.556
X6.328 Y99.498
X6.554 Y99.403
X7.239 Y98.984
X7.37 Y98.911
X7.506 Y98.847
X7.645 Y98.791
X7.787 Y98.743
X7.964 Y98.689
X8.155 Y98.64
X8.39 Y98.589
X8.715 Y98.531
X9.106 Y98.478
X9.625 Y98.428
X10.503 Y98.378
X11.485 Y98.36
X12.466 Y98.356
X13.448 Y98.355
X23.754 Y98.354
X23.942 Y98.356
X24.264 Y98.392
X24.572 Y98.493
X24.853 Y98.655
X24.927 Y98.707
X24.999 Y98.755
X25.15 Y98.847
X25.507 Y99.031
G3 X25.695 Y99.192 I-0.31 J0.554
G1 X25.757 Y99.27 Z13.208
X25.817 Y99.346 Z13.231
X25.874 Y99.418 Z13.269
X25.927 Y99.485 Z13.321
X25.973 Y99.544 Z13.386
X26.014 Y99.595 Z13.462
X26.046 Y99.636 Z13.547
X26.069 Y99.666 Z13.639
X26.084 Y99.684 Z13.736
X26.089 Y99.69 Z13.835
G0 Z18.7
X1.092 Y59.941
Z14.47
G1 Z13.835 F1219.2
X1.093 Y59.934 Z13.736
X1.098 Y59.911 Z13.639
X1.105 Y59.873 Z13.547
X1.115 Y59.822 Z13.462
X1.128 Y59.759 Z13.386
X1.142 Y59.685 Z13.321
X1.159 Y59.601 Z13.269
X1.177 Y59.511 Z13.231
X1.196 Y59.416 Z13.208
X1.215 Y59.318 Z13.2
G3 X1.406 Y59.159 I0.195 J0.039
G1 X1.797 Y59.166
X1.893 Y59.172
X2.041 Y59.197
X2.183 Y59.245
X2.319 Y59.309
X2.448 Y59.385
X2.571 Y59.471
X2.688 Y59.565
X2.8 Y59.666
X2.906 Y59.772
X3.006 Y59.883
X3.102 Y59.998
X3.2 Y60.125
X3.302 Y60.271
X3.401 Y60.423
X3.506 Y60.6
X3.615 Y60.8
X3.718 Y61.01
X3.825 Y61.249
X3.938 Y61.533
X4.044 Y61.832
X4.149 Y62.17
X4.257 Y62.573
X4.36 Y63.032
X4.457 Y63.55
X4.551 Y64.198
X4.635 Y64.994
X4.699 Y65.973
X4.726 Y66.954
X4.738 Y67.936
X4.743 Y68.917
X4.745 Y69.899
X4.746 Y73.825
Y97.872
X4.787 Y98.114
X4.864 Y98.346
X4.977 Y98.564
X5.122 Y98.762
X5.296 Y98.936
X5.494 Y99.08
X5.712 Y99.193
X5.945 Y99.27
X6.187 Y99.31
X6.432 Y99.313
X6.554 Y99.295
X6.674 Y99.268
X6.791 Y99.232
X6.905 Y99.187
G3 X7.15 Y99.152 I0.212 J0.598
G1 X7.249 Y99.157 Z13.208
X7.346 Y99.162 Z13.231
X7.438 Y99.167 Z13.269
X7.523 Y99.171 Z13.321
X7.598 Y99.175 Z13.386
X7.663 Y99.178 Z13.462
X7.715 Y99.181 Z13.547
X7.753 Y99.183 Z13.639
X7.776 Y99.184 Z13.736
X7.784 Z13.835
G0 Z18.7
X1.482 Y59.948
Z14.47
G1 Z13.835 F1219.2
X1.484 Y59.941 Z13.736
X1.488 Y59.918 Z13.639
X1.496 Y59.88 Z13.547
X1.506 Y59.829 Z13.462
X1.519 Y59.766 Z13.386
X1.533 Y59.692 Z13.321
X1.55 Y59.608 Z13.269
X1.568 Y59.518 Z13.231
X1.586 Y59.423 Z13.208
X1.606 Y59.325 Z13.2
G3 X1.797 Y59.166 I0.195 J0.039
G1 X2.213 Y59.173
X2.309 Y59.18
X2.456 Y59.206
X2.599 Y59.254
X2.734 Y59.317
X2.864 Y59.392
X2.988 Y59.477
X3.106 Y59.57
X3.218 Y59.67
X3.325 Y59.775
X3.427 Y59.885
X3.524 Y59.999
X3.623 Y60.125
X3.727 Y60.27
X3.83 Y60.425
X3.937 Y60.6
X4.048 Y60.8
X4.158 Y61.016
X4.266 Y61.251
X4.38 Y61.528
X4.495 Y61.84
X4.601 Y62.17
X4.711 Y62.562
X4.824 Y63.037
X4.921 Y63.528
X5.019 Y64.147
X5.111 Y64.933
X5.181 Y65.842
X5.218 Y66.823
X5.234 Y67.804
X5.241 Y68.786
X5.244 Y69.767
X5.245 Y71.73
X5.246 Y97.741
X5.31 Y97.977
X5.409 Y98.202
X5.543 Y98.408
X5.706 Y98.591
X5.895 Y98.747
X6.107 Y98.872
X6.335 Y98.962
X6.574 Y99.017
X6.819 Y99.034
X7.063 Y99.013
X7.182 Y98.984
X7.299 Y98.945
G3 X7.546 Y98.924 I0.177 J0.61
G1 X7.644 Y98.935 Z13.208
X7.741 Y98.945 Z13.231
X7.832 Y98.956 Z13.269
X7.917 Y98.965 Z13.321
X7.992 Y98.973 Z13.386
X8.056 Y98.98 Z13.462
X8.108 Y98.986 Z13.547
X8.146 Y98.99 Z13.639
X8.169 Y98.993 Z13.736
X8.177 Y98.994 Z13.835
G0 Z18.7
X1.898 Y59.956
Z14.47
G1 Z13.835 F1219.2
X1.9 Y59.948 Z13.736
X1.904 Y59.925 Z13.639
X1.912 Y59.888 Z13.547
X1.922 Y59.837 Z13.462
X1.934 Y59.773 Z13.386
X1.949 Y59.699 Z13.321
X1.965 Y59.616 Z13.269
X1.983 Y59.525 Z13.231
X2.002 Y59.43 Z13.208
X2.021 Y59.333 Z13.2
G3 X2.213 Y59.173 I0.195 J0.039
G1 X2.399 Y59.176
X2.622 Y59.187
X2.659 Y59.189
X2.765 Y59.201
X2.912 Y59.231
X3.053 Y59.282
X3.188 Y59.347
X3.317 Y59.423
X3.44 Y59.509
X3.558 Y59.603
X3.669 Y59.703
X3.776 Y59.808
X3.878 Y59.918
X3.98 Y60.038
X4.079 Y60.165
X4.185 Y60.311
X4.295 Y60.477
X4.401 Y60.651
X4.515 Y60.854
X4.631 Y61.085
X4.742 Y61.325
X4.856 Y61.601
X4.976 Y61.93
X5.09 Y62.282
X5.198 Y62.667
X5.31 Y63.136
X5.422 Y63.706
X5.515 Y64.295
X5.604 Y65.053
X5.679 Y66.02
X5.716 Y67.001
X5.733 Y67.982
X5.74 Y68.964
X5.744 Y69.945
X5.745 Y71.908
X5.746 Y97.428
X5.795 Y97.668
X5.881 Y97.898
X6.001 Y98.112
X6.152 Y98.305
X6.332 Y98.472
X6.535 Y98.61
X6.757 Y98.715
X6.992 Y98.784
X7.236 Y98.816
X7.481 Y98.81
X7.602 Y98.788
X7.839 Y98.726
X8.876 Y98.275
X9.017 Y98.223
X9.161 Y98.179
X9.344 Y98.129
X9.561 Y98.081
X9.805 Y98.035
X10.144 Y97.986
X10.616 Y97.937
X11.371 Y97.887
X12.352 Y97.862
X13.334 Y97.856
X14.315 Y97.855
X16.278 Y97.854
X23.149
X23.423 Y97.864
X23.441 Y97.866
X23.72 Y97.912
X23.987 Y98.008
X24.233 Y98.149
X24.449 Y98.332
X24.48 Y98.363
X24.703 Y98.547
X24.853 Y98.655
G3 X25.016 Y98.842 I-0.388 J0.502
G1 X25.065 Y98.928 Z13.208
X25.113 Y99.012 Z13.231
X25.159 Y99.092 Z13.269
X25.201 Y99.165 Z13.321
X25.239 Y99.231 Z13.386
X25.271 Y99.287 Z13.462
X25.297 Y99.333 Z13.547
X25.316 Y99.366 Z13.639
X25.327 Y99.386 Z13.736
X25.331 Y99.393 Z13.835
G0 Z18.7
X3.274 Y59.502
Z14.47
G1 Z13.835 F1219.2
X3.266 Y59.501 Z13.736
X3.243 Y59.499 Z13.639
X3.205 Y59.495 Z13.547
X3.153 Y59.49 Z13.462
X3.089 Y59.483 Z13.386
X3.014 Y59.476 Z13.321
X2.929 Y59.467 Z13.269
X2.837 Y59.458 Z13.231
X2.741 Y59.448 Z13.208
X2.642 Y59.438 Z13.2
G3 X2.659 Y59.189 I0.013 J-0.124
G1 X3.135 Y59.221
X3.235 Y59.233
X3.381 Y59.267
X3.522 Y59.32
X3.656 Y59.387
X3.784 Y59.465
X3.906 Y59.552
X4.023 Y59.646
X4.134 Y59.747
X4.24 Y59.853
X4.342 Y59.963
X4.445 Y60.085
X4.547 Y60.216
X4.656 Y60.367
X4.768 Y60.537
X4.876 Y60.715
X4.993 Y60.925
X5.113 Y61.164
X5.226 Y61.412
X5.343 Y61.697
X5.465 Y62.032
X5.58 Y62.392
X5.696 Y62.808
X5.809 Y63.289
X5.923 Y63.869
X6.015 Y64.464
X6.105 Y65.25
X6.178 Y66.229
X6.215 Y67.21
X6.232 Y68.191
X6.24 Y69.173
X6.243 Y70.154
X6.245 Y72.117
X6.246 Y97.146
X6.287 Y97.388
X6.365 Y97.62
X6.478 Y97.838
X6.624 Y98.036
X6.798 Y98.209
X6.996 Y98.353
X7.215 Y98.465
X7.448 Y98.542
X7.69 Y98.582
X7.935 Y98.584
X8.178 Y98.548
X8.295 Y98.512
X8.523 Y98.421
X8.946 Y98.172
X9.055 Y98.068
X9.178 Y97.983
X9.309 Y97.91
X9.445 Y97.846
X9.584 Y97.791
X9.726 Y97.741
X9.883 Y97.694
X10.086 Y97.641
X10.346 Y97.585
X10.621 Y97.536
X11.014 Y97.482
X11.546 Y97.43
X12.416 Y97.379
X13.397 Y97.36
X14.378 Y97.356
X16.341 Y97.354
X22.231
X22.488 Y97.357
X22.633 Y97.364
X22.777 Y97.384
X22.919 Y97.417
X23.142 Y97.471
X23.365 Y97.512
X23.433 Y97.521
X23.48 Y97.528
X23.513 Y97.532
X23.589 Y97.548
X23.645 Y97.563
X23.7 Y97.579
G3 X23.983 Y98.206 I-0.253 J0.492
X22.928 Y97.941 I-0.528 J-0.133
X23.513 Y97.532 I0.528 J0.133
G1 X23.588 Y97.543
X23.7 Y97.579
X23.756 Y97.606
X23.813 Y97.64
X23.875 Y97.688
X23.938 Y97.751
X24.034 Y97.875
X24.216 Y98.086
X24.427 Y98.309
X24.449 Y98.332
G3 X24.579 Y98.543 I-0.467 J0.431
G1 X24.613 Y98.636 Z13.208
X24.646 Y98.727 Z13.231
X24.678 Y98.814 Z13.269
X24.707 Y98.893 Z13.321
X24.734 Y98.965 Z13.386
X24.756 Y99.025 Z13.462
X24.774 Y99.074 Z13.547
X24.787 Y99.11 Z13.639
X24.795 Y99.132 Z13.736
X24.798 Y99.139 Z13.835
G0 Z18.7
X3.749 Y59.537
Z14.47
G1 Z13.835 F1219.2
X3.742 Y59.536 Z13.736
X3.718 Y59.533 Z13.639
X3.681 Y59.529 Z13.547
X3.629 Y59.524 Z13.462
X3.564 Y59.517 Z13.386
X3.489 Y59.509 Z13.321
X3.405 Y59.5 Z13.269
X3.313 Y59.491 Z13.231
X3.217 Y59.48 Z13.208
X3.118 Y59.47 Z13.2
G3 X3.135 Y59.221 I0.013 J-0.124
G1 X3.291 Y59.232
X3.67 Y59.288
X3.779 Y59.31
X3.923 Y59.351
X4.061 Y59.41
X4.192 Y59.483
X4.318 Y59.565
X4.437 Y59.656
X4.551 Y59.754
X4.66 Y59.857
X4.763 Y59.966
X4.862 Y60.078
X4.969 Y60.21
X5.075 Y60.351
X5.183 Y60.507
X5.298 Y60.688
X5.413 Y60.886
X5.528 Y61.104
X5.648 Y61.356
X5.772 Y61.641
X5.887 Y61.939
X6.008 Y62.293
X6.134 Y62.716
X6.247 Y63.158
X6.354 Y63.654
X6.462 Y64.274
X6.566 Y65.045
X6.643 Y65.858
X6.697 Y66.838
X6.723 Y67.819
X6.736 Y68.801
X6.741 Y69.782
X6.744 Y70.764
X6.745 Y72.727
X6.746 Y96.774
